; generated by Slic3r 0.9.7 on 2012-12-04 at 07:17:04

; layer_height = .35
; perimeters = 2
; top_solid_layers = 3
; bottom_solid_layers = 3
; fill_density = .125
; perimeter_speed = 20
; infill_speed = 30
; travel_speed = 130
; scale = 1
; nozzle_diameter = 0.45
; filament_diameter = 2.87
; extrusion_multiplier = 1
; perimeters extrusion width = 0.31mm
; infill extrusion width = 0.31mm
; support material extrusion width = 0.31mm
; first layer extrusion width = 0.46mm

M190 S65 ; wait for bed temperature to be reached
M104 S210 ; set temperature
G92 E0; reset extruder
;G1 E3 F1200; prime extruder 3mm
;G1 E2 F1200; retract extruder 1mm
G28 ; home all axes
G92 E0; reset extruder
M109 S210 ; wait for temperature to be reached
G90 ; use absolute coordinates
G21 ; set units to millimeters
G92 E0
M82 ; use absolute distances for extrusion
M106 S63
G1 F1800.000 E-1.00000
G92 E0
G1 Z0.835 F7800.000
G1 X35.820 Y68.720
G1 F1800.000 E1.00000
G1 X36.490 Y68.390 F780.000 E1.02042
G1 X38.360 Y67.560 E1.07636
G1 X39.040 Y67.290 E1.09636
G1 X39.740 Y67.080 E1.11634
G1 X42.090 Y66.560 E1.18215
G1 X43.620 Y66.370 E1.22430
G1 X45.230 Y66.310 E1.26836
G1 X154.760 Y66.310 E4.26306
G1 X156.370 Y66.370 E4.30711
G1 X157.900 Y66.560 E4.34927
G1 X159.890 Y66.990 E4.40493
G1 X160.600 Y67.180 E4.42503
G1 X161.290 Y67.420 E4.44500
G1 X163.840 Y68.550 E4.52126
G1 X164.170 Y68.720 E4.53141
G1 X164.820 Y69.110 E4.55214
G1 X166.780 Y70.530 E4.61831
G1 X167.350 Y70.980 E4.63817
G1 X168.140 Y71.750 E4.66833
G1 X169.760 Y73.550 E4.73454
G1 X170.220 Y74.150 E4.75521
G1 X170.630 Y74.800 E4.77623
G1 X171.830 Y76.890 E4.84212
G1 X172.140 Y77.570 E4.86255
G1 X172.280 Y77.910 E4.87260
G1 X173.140 Y80.570 E4.94904
G1 X173.240 Y80.930 E4.95926
G1 X173.380 Y81.680 E4.98012
G1 X173.630 Y84.100 E5.04663
G1 X173.680 Y85.010 E5.07155
G1 X173.680 Y114.980 E5.89098
G1 X173.630 Y115.890 E5.91589
G1 X173.420 Y117.940 E5.97224
G1 X173.380 Y118.310 E5.98241
G1 X173.240 Y119.060 E6.00327
G1 X173.030 Y119.780 E6.02378
G1 X172.280 Y122.080 E6.08992
G1 X171.990 Y122.760 E6.11014
G1 X171.830 Y123.100 E6.12041
G1 X171.650 Y123.420 E6.13045
G1 X170.630 Y125.190 E6.18630
G1 X170.220 Y125.840 E6.20731
G1 X169.760 Y126.440 E6.22799
G1 X169.510 Y126.730 E6.23845
G1 X168.140 Y128.240 E6.29420
G1 X167.350 Y129.010 E6.32436
G1 X166.780 Y129.460 E6.34422
G1 X165.130 Y130.660 E6.40000
G1 X164.500 Y131.080 E6.42070
G1 X164.170 Y131.270 E6.43111
G1 X163.500 Y131.600 E6.45153
G1 X161.630 Y132.430 E6.50747
G1 X160.950 Y132.700 E6.52748
G1 X160.250 Y132.910 E6.54746
G1 X157.900 Y133.430 E6.61327
G1 X156.370 Y133.620 E6.65542
G1 X154.760 Y133.680 E6.69947
G1 X45.230 Y133.680 E9.69418
G1 X43.620 Y133.620 E9.73823
G1 X42.090 Y133.430 E9.78038
G1 X40.100 Y133.000 E9.83605
G1 X39.390 Y132.810 E9.85614
G1 X38.700 Y132.570 E9.87612
G1 X36.150 Y131.440 E9.95238
G1 X35.820 Y131.270 E9.96253
G1 X35.170 Y130.880 E9.98325
G1 X33.210 Y129.460 E10.04943
G1 X32.640 Y129.010 E10.06928
G1 X31.850 Y128.240 E10.09945
G1 X30.230 Y126.440 E10.16566
G1 X29.770 Y125.840 E10.18633
G1 X29.360 Y125.190 E10.20734
G1 X28.160 Y123.100 E10.27323
G1 X27.850 Y122.420 E10.29367
G1 X27.710 Y122.080 E10.30372
G1 X26.850 Y119.420 E10.38015
G1 X26.750 Y119.060 E10.39037
G1 X26.610 Y118.310 E10.41123
G1 X26.360 Y115.890 E10.47775
G1 X26.310 Y114.980 E10.50267
G1 X26.310 Y85.010 E11.32209
G1 X26.360 Y84.100 E11.34701
G1 X26.570 Y82.050 E11.40335
G1 X26.610 Y81.680 E11.41353
G1 X26.750 Y80.930 E11.43439
G1 X26.960 Y80.210 E11.45489
G1 X27.710 Y77.910 E11.52104
G1 X28.000 Y77.230 E11.54125
G1 X28.160 Y76.890 E11.55152
G1 X28.340 Y76.570 E11.56156
G1 X29.360 Y74.800 E11.61742
G1 X29.770 Y74.150 E11.63843
G1 X30.230 Y73.550 E11.65910
G1 X30.480 Y73.260 E11.66957
G1 X31.850 Y71.750 E11.72531
G1 X32.640 Y70.980 E11.75548
G1 X33.210 Y70.530 E11.77533
G1 X34.860 Y69.330 E11.83112
G1 X35.170 Y69.110 E11.84151
G1 X35.760 Y68.754 E11.86035
G1 X35.820 Y68.720 E11.86223
G1 X36.040 Y69.120 F7800.000
G1 X36.680 Y68.810 F780.000 E11.88168
G1 X38.870 Y67.840 E11.94717
G1 X39.190 Y67.720 E11.95651
G1 X39.860 Y67.520 E11.97563
G1 X42.180 Y67.010 E12.04057
G1 X43.630 Y66.830 E12.08052
G1 X45.230 Y66.770 E12.12430
G1 X154.760 Y66.770 E15.11901
G1 X156.360 Y66.830 E15.16279
G1 X157.810 Y67.010 E15.20274
G1 X160.130 Y67.520 E15.26768
G1 X160.800 Y67.720 E15.28680
G1 X161.120 Y67.840 E15.29614
G1 X163.640 Y68.960 E15.37154
G1 X164.260 Y69.300 E15.39088
G1 X164.860 Y69.700 E15.41059
G1 X166.510 Y70.900 E15.46638
G1 X167.310 Y71.560 E15.49473
G1 X167.800 Y72.060 E15.51387
G1 X169.400 Y73.840 E15.57931
G1 X169.840 Y74.410 E15.59900
G1 X170.230 Y75.030 E15.61903
G1 X171.250 Y76.800 E15.67488
G1 X171.580 Y77.420 E15.69408
G1 X171.850 Y78.070 E15.71333
G1 X171.970 Y78.410 E15.72319
G1 X172.600 Y80.350 E15.77896
G1 X172.790 Y81.040 E15.79852
G1 X172.970 Y82.100 E15.82792
G1 X173.180 Y84.150 E15.88426
G1 X173.220 Y85.010 E15.90780
G1 X173.220 Y114.980 E16.72723
G1 X173.180 Y115.840 E16.75077
G1 X172.970 Y117.890 E16.80711
G1 X172.860 Y118.600 E16.82675
G1 X172.790 Y118.950 E16.83651
G1 X172.600 Y119.640 E16.85608
G1 X171.970 Y121.580 E16.91185
G1 X171.850 Y121.920 E16.92171
G1 X171.580 Y122.570 E16.94095
G1 X171.250 Y123.190 E16.96015
G1 X170.230 Y124.960 E17.01601
G1 X169.840 Y125.580 E17.03604
G1 X169.630 Y125.870 E17.04583
G1 X169.170 Y126.420 E17.06543
G1 X167.560 Y128.190 E17.13085
G1 X167.310 Y128.430 E17.14032
G1 X166.510 Y129.090 E17.16868
G1 X164.860 Y130.290 E17.22446
G1 X164.260 Y130.690 E17.24418
G1 X163.640 Y131.030 E17.26351
G1 X161.120 Y132.150 E17.33891
G1 X160.800 Y132.270 E17.34826
G1 X160.130 Y132.470 E17.36737
G1 X157.810 Y132.980 E17.43232
G1 X156.360 Y133.160 E17.47227
G1 X154.760 Y133.220 E17.51605
G1 X45.230 Y133.220 E20.51075
G1 X43.630 Y133.160 E20.55453
G1 X42.180 Y132.980 E20.59448
G1 X39.860 Y132.470 E20.65943
G1 X39.190 Y132.270 E20.67855
G1 X38.870 Y132.150 E20.68789
G1 X36.350 Y131.030 E20.76329
G1 X35.730 Y130.690 E20.78262
G1 X35.130 Y130.290 E20.80234
G1 X33.480 Y129.090 E20.85812
G1 X32.680 Y128.430 E20.88648
G1 X32.190 Y127.930 E20.90562
G1 X30.590 Y126.150 E20.97106
G1 X30.150 Y125.580 E20.99074
G1 X29.760 Y124.960 E21.01077
G1 X28.740 Y123.190 E21.06663
G1 X28.410 Y122.570 E21.08583
G1 X28.140 Y121.920 E21.10507
G1 X28.020 Y121.580 E21.11493
G1 X27.390 Y119.640 E21.17070
G1 X27.200 Y118.950 E21.19027
G1 X27.020 Y117.890 E21.21967
G1 X26.810 Y115.840 E21.27601
G1 X26.770 Y114.980 E21.29955
G1 X26.770 Y85.010 E22.11897
G1 X26.810 Y84.150 E22.14251
G1 X27.020 Y82.100 E22.19885
G1 X27.200 Y81.040 E22.22825
G1 X27.390 Y80.350 E22.24782
G1 X28.020 Y78.410 E22.30359
G1 X28.140 Y78.070 E22.31345
G1 X28.410 Y77.420 E22.33269
G1 X28.740 Y76.800 E22.35189
G1 X29.760 Y75.030 E22.40775
G1 X30.150 Y74.410 E22.42777
G1 X30.360 Y74.120 E22.43756
G1 X30.820 Y73.570 E22.45717
G1 X32.430 Y71.800 E22.52259
G1 X32.940 Y71.330 E22.54155
G1 X33.480 Y70.900 E22.56042
G1 X35.130 Y69.700 E22.61621
G1 X35.430 Y69.490 E22.62622
G1 X35.980 Y69.155 E22.64384
G1 X36.040 Y69.120 E22.64573
G1 F1800.000 E21.64573
G92 E0
G1 X38.236 Y72.852 F7800.000
G1 F1800.000 E1.00000
G1 X40.498 Y71.845 F780.000 E1.06768
G1 X40.910 Y71.711 E1.07953
G1 X43.428 Y71.186 E1.14987
G1 X43.518 Y71.096 E1.15334
G1 X156.482 Y71.096 E4.24193
G1 X156.572 Y71.186 E4.24540
G1 X159.090 Y71.711 E4.31574
G1 X159.502 Y71.845 E4.32759
G1 X161.764 Y72.852 E4.39527
G1 X162.139 Y73.068 E4.40712
G1 X164.142 Y74.523 E4.47480
G1 X164.464 Y74.813 E4.48665
G1 X166.120 Y76.653 E4.55433
G1 X166.375 Y77.004 E4.56618
G1 X167.612 Y79.147 E4.63386
G1 X167.789 Y79.543 E4.64571
G1 X168.554 Y81.898 E4.71339
G1 X168.644 Y82.321 E4.72524
G1 X168.904 Y84.904 E4.79621
G1 X168.904 Y115.096 E5.62171
G1 X168.644 Y117.679 E5.69267
G1 X168.554 Y118.102 E5.70452
G1 X167.789 Y120.457 E5.77220
G1 X167.612 Y120.853 E5.78405
G1 X166.375 Y122.996 E5.85173
G1 X166.120 Y123.347 E5.86358
G1 X164.464 Y125.187 E5.93126
G1 X164.142 Y125.477 E5.94311
G1 X162.139 Y126.932 E6.01079
G1 X161.764 Y127.148 E6.02264
G1 X159.502 Y128.155 E6.09032
G1 X159.090 Y128.289 E6.10217
G1 X156.572 Y128.814 E6.17251
G1 X156.482 Y128.904 E6.17599
G1 X43.518 Y128.904 E9.26457
G1 X43.428 Y128.814 E9.26804
G1 X40.910 Y128.289 E9.33838
G1 X40.498 Y128.155 E9.35023
G1 X38.236 Y127.148 E9.41791
G1 X37.861 Y126.932 E9.42976
G1 X35.858 Y125.477 E9.49744
G1 X35.536 Y125.187 E9.50929
G1 X33.880 Y123.347 E9.57697
G1 X33.625 Y122.996 E9.58882
G1 X32.388 Y120.853 E9.65650
G1 X32.211 Y120.457 E9.66835
G1 X31.446 Y118.102 E9.73604
G1 X31.356 Y117.679 E9.74789
G1 X31.096 Y115.096 E9.81885
G1 X31.096 Y84.904 E10.64435
G1 X31.356 Y82.321 E10.71531
G1 X31.446 Y81.898 E10.72716
G1 X32.211 Y79.543 E10.79484
G1 X32.388 Y79.147 E10.80669
G1 X33.625 Y77.004 E10.87437
G1 X33.880 Y76.653 E10.88622
G1 X35.536 Y74.813 E10.95391
G1 X35.858 Y74.523 E10.96575
G1 X37.861 Y73.068 E11.03344
G1 X38.177 Y72.886 E11.04340
G1 X38.236 Y72.852 E11.04529
G1 X38.445 Y73.262 F7800.000
G1 X40.663 Y72.274 F780.000 E11.11165
G1 X41.029 Y72.155 E11.12218
G1 X43.403 Y71.651 E11.18855
G1 X43.638 Y71.626 E11.19501
G1 X43.709 Y71.556 E11.19773
G1 X156.291 Y71.556 E14.27591
G1 X156.362 Y71.626 E14.27863
G1 X156.597 Y71.651 E14.28509
G1 X158.971 Y72.155 E14.35145
G1 X159.337 Y72.274 E14.36198
G1 X161.555 Y73.262 E14.42835
G1 X161.888 Y73.454 E14.43888
G1 X163.852 Y74.881 E14.50525
G1 X164.138 Y75.139 E14.51578
G1 X165.762 Y76.942 E14.58214
G1 X165.989 Y77.254 E14.59268
G1 X167.203 Y79.356 E14.65904
G1 X167.359 Y79.708 E14.66957
G1 X168.109 Y82.017 E14.73594
G1 X168.189 Y82.393 E14.74647
G1 X168.444 Y84.916 E14.81579
G1 X168.444 Y115.084 E15.64063
G1 X168.189 Y117.607 E15.70995
G1 X168.109 Y117.983 E15.72049
G1 X167.359 Y120.292 E15.78685
G1 X167.203 Y120.644 E15.79738
G1 X165.989 Y122.746 E15.86375
G1 X165.762 Y123.058 E15.87428
G1 X164.138 Y124.861 E15.94065
G1 X163.852 Y125.119 E15.95118
G1 X161.888 Y126.546 E16.01754
G1 X161.555 Y126.738 E16.02808
G1 X159.337 Y127.726 E16.09444
G1 X158.971 Y127.845 E16.10497
G1 X156.597 Y128.349 E16.17134
G1 X156.362 Y128.374 E16.17780
G1 X156.291 Y128.444 E16.18052
G1 X43.709 Y128.444 E19.25869
G1 X43.638 Y128.374 E19.26141
G1 X43.403 Y128.349 E19.26788
G1 X41.029 Y127.845 E19.33424
G1 X40.663 Y127.726 E19.34477
G1 X38.445 Y126.738 E19.41114
G1 X38.112 Y126.546 E19.42167
G1 X36.148 Y125.119 E19.48804
G1 X35.862 Y124.861 E19.49857
G1 X34.238 Y123.058 E19.56493
G1 X34.011 Y122.746 E19.57547
G1 X32.797 Y120.644 E19.64183
G1 X32.641 Y120.292 E19.65236
G1 X31.891 Y117.983 E19.71873
G1 X31.811 Y117.607 E19.72926
G1 X31.556 Y115.084 E19.79858
G1 X31.556 Y84.916 E20.62342
G1 X31.811 Y82.393 E20.69274
G1 X31.891 Y82.017 E20.70327
G1 X32.641 Y79.708 E20.76964
G1 X32.797 Y79.356 E20.78017
G1 X34.011 Y77.254 E20.84654
G1 X34.238 Y76.942 E20.85707
G1 X35.862 Y75.139 E20.92343
G1 X36.148 Y74.881 E20.93397
G1 X38.112 Y73.454 E21.00033
G1 X38.386 Y73.296 E21.00898
G1 X38.445 Y73.262 E21.01086
G1 X38.654 Y73.672 F7800.000
G1 X40.828 Y72.704 F780.000 E21.07591
G1 X41.148 Y72.600 E21.08513
G1 X43.475 Y72.105 E21.15018
G1 X43.844 Y72.070 E21.16031
G1 X43.899 Y72.015 E21.16243
G1 X156.101 Y72.015 E24.23020
G1 X156.156 Y72.070 E24.23232
G1 X156.525 Y72.105 E24.24245
G1 X158.852 Y72.600 E24.30750
G1 X159.172 Y72.704 E24.31671
G1 X161.346 Y73.672 E24.38176
G1 X161.638 Y73.840 E24.39098
G1 X163.563 Y75.238 E24.45602
G1 X163.813 Y75.464 E24.46524
G1 X165.405 Y77.232 E24.53029
G1 X165.603 Y77.505 E24.53951
G1 X166.793 Y79.565 E24.60455
G1 X166.930 Y79.873 E24.61377
G1 X167.665 Y82.136 E24.67882
G1 X167.735 Y82.465 E24.68803
G1 X167.985 Y84.928 E24.75571
G1 X167.985 Y115.072 E25.57989
G1 X167.735 Y117.535 E25.64757
G1 X167.665 Y117.864 E25.65679
G1 X166.930 Y120.127 E25.72183
G1 X166.793 Y120.435 E25.73105
G1 X165.603 Y122.495 E25.79610
G1 X165.405 Y122.768 E25.80531
G1 X163.813 Y124.536 E25.87036
G1 X163.563 Y124.762 E25.87958
G1 X161.638 Y126.160 E25.94463
G1 X161.346 Y126.328 E25.95384
G1 X159.172 Y127.296 E26.01889
G1 X158.852 Y127.400 E26.02811
G1 X156.525 Y127.895 E26.09315
G1 X156.156 Y127.930 E26.10329
G1 X156.101 Y127.985 E26.10540
G1 X43.899 Y127.985 E29.17317
G1 X43.844 Y127.930 E29.17529
G1 X43.475 Y127.895 E29.18543
G1 X41.148 Y127.400 E29.25047
G1 X40.828 Y127.296 E29.25969
G1 X38.654 Y126.328 E29.32474
G1 X38.362 Y126.160 E29.33395
G1 X36.437 Y124.762 E29.39900
G1 X36.187 Y124.536 E29.40822
G1 X34.595 Y122.768 E29.47327
G1 X34.397 Y122.495 E29.48248
G1 X33.207 Y120.435 E29.54753
G1 X33.070 Y120.127 E29.55675
G1 X32.335 Y117.864 E29.62179
G1 X32.265 Y117.535 E29.63101
G1 X32.015 Y115.072 E29.69869
G1 X32.015 Y84.928 E30.52287
G1 X32.265 Y82.465 E30.59055
G1 X32.335 Y82.136 E30.59976
G1 X33.070 Y79.873 E30.66481
G1 X33.207 Y79.565 E30.67403
G1 X34.397 Y77.505 E30.73907
G1 X34.595 Y77.232 E30.74829
G1 X36.187 Y75.464 E30.81334
G1 X36.437 Y75.238 E30.82255
G1 X38.362 Y73.840 E30.88760
G1 X38.594 Y73.706 E30.89493
G1 X38.654 Y73.672 E30.89682
G1 X38.863 Y74.081 F7800.000
G1 X40.992 Y73.133 F780.000 E30.96055
G1 X41.267 Y73.044 E30.96845
G1 X43.547 Y72.559 E31.03218
G1 X44.034 Y72.529 E31.04553
G1 X44.089 Y72.474 E31.04765
G1 X155.911 Y72.474 E34.10501
G1 X155.966 Y72.529 E34.10713
G1 X156.453 Y72.559 E34.12048
G1 X158.733 Y73.044 E34.18421
G1 X159.008 Y73.133 E34.19211
G1 X161.137 Y74.081 E34.25584
G1 X161.387 Y74.226 E34.26374
G1 X163.273 Y75.596 E34.32747
G1 X163.488 Y75.789 E34.33537
G1 X165.047 Y77.522 E34.39910
G1 X165.217 Y77.755 E34.40700
G1 X166.383 Y79.774 E34.47073
G1 X166.500 Y80.038 E34.47863
G1 X167.221 Y82.255 E34.54236
G1 X167.281 Y82.537 E34.55026
G1 X167.526 Y84.940 E34.61629
G1 X167.526 Y115.060 E35.43982
G1 X167.281 Y117.463 E35.50585
G1 X167.221 Y117.745 E35.51375
G1 X166.500 Y119.962 E35.57748
G1 X166.383 Y120.226 E35.58538
G1 X165.217 Y122.245 E35.64911
G1 X165.047 Y122.478 E35.65701
G1 X163.488 Y124.211 E35.72074
G1 X163.273 Y124.404 E35.72864
G1 X161.387 Y125.774 E35.79237
G1 X161.137 Y125.919 E35.80027
G1 X159.008 Y126.867 E35.86401
G1 X158.733 Y126.956 E35.87191
G1 X156.453 Y127.441 E35.93564
G1 X155.966 Y127.471 E35.94898
G1 X155.911 Y127.526 E35.95110
G1 X44.089 Y127.526 E39.00847
G1 X44.034 Y127.471 E39.01058
G1 X43.547 Y127.441 E39.02393
G1 X41.267 Y126.956 E39.08766
G1 X40.992 Y126.867 E39.09556
G1 X38.863 Y125.919 E39.15929
G1 X38.613 Y125.774 E39.16719
G1 X36.727 Y124.404 E39.23092
G1 X36.512 Y124.211 E39.23882
G1 X34.953 Y122.478 E39.30256
G1 X34.783 Y122.245 E39.31046
G1 X33.617 Y120.226 E39.37419
G1 X33.500 Y119.962 E39.38209
G1 X32.779 Y117.745 E39.44582
G1 X32.719 Y117.463 E39.45372
G1 X32.474 Y115.060 E39.51975
G1 X32.474 Y84.940 E40.34328
G1 X32.719 Y82.537 E40.40931
G1 X32.779 Y82.255 E40.41721
G1 X33.500 Y80.038 E40.48094
G1 X33.617 Y79.774 E40.48884
G1 X34.783 Y77.755 E40.55257
G1 X34.953 Y77.522 E40.56047
G1 X36.512 Y75.789 E40.62420
G1 X36.727 Y75.596 E40.63210
G1 X38.613 Y74.226 E40.69583
G1 X38.803 Y74.116 E40.70185
G1 X38.863 Y74.081 E40.70373
G1 X39.072 Y74.491 F7800.000
G1 X41.157 Y73.563 F780.000 E40.76614
G1 X41.386 Y73.488 E40.77273
G1 X43.619 Y73.014 E40.83514
G1 X43.859 Y72.989 E40.84173
G1 X44.225 Y72.989 E40.85174
G1 X44.279 Y72.934 E40.85385
G1 X155.720 Y72.934 E43.90081
G1 X155.775 Y72.989 E43.90293
G1 X156.141 Y72.989 E43.91294
G1 X156.381 Y73.014 E43.91952
G1 X158.614 Y73.488 E43.98194
G1 X158.843 Y73.563 E43.98852
G1 X160.928 Y74.491 E44.05094
G1 X161.137 Y74.612 E44.05752
G1 X162.983 Y75.954 E44.11993
G1 X163.162 Y76.115 E44.12652
G1 X164.690 Y77.811 E44.18893
G1 X164.831 Y78.006 E44.19551
G1 X165.973 Y79.983 E44.25793
G1 X166.071 Y80.203 E44.26451
