;PYCAM-META-DATA: Filename: C:\Users\Ryan\Documents\3dStlFiles\CNC\pycam.stl
;PYCAM-META-DATA: Timestamp: 2012-12-04 20:22:26.121000
;PYCAM-META-DATA: Version: 0.5.1.1
;Estimated machine time: 117 minutes
G40 (disable tool radius compensation)
G49 (disable tool length compensation)
G80 (cancel modal motion)
G54 (select coordinate system 1)
G90 (disable incremental moves)
G21 (metric)
G61 (exact path mode)
F200.00000
S1000.00000
;PYCAM_TOOLPATH_SETTINGS: START
;[Bounds]
;maxz = 0.0
;maxx = 141.5
;maxy = 53.5
;minx = -11.5
;miny = -3.5
;minz = -10.0
;
;[Tool]
;torus_radius = 0.25
;speed = 1000.0
;shape = CylindricalCutter
;tool_radius = 1.5
;feedrate = 200.0
;
;[Process]
;generator = PushCutter
;pocketing_type = none
;engrave_offset = 0.0
;milling_style = ignore
;path_direction = x
;step_down = 3.0
;postprocessor = SimpleCutter
;overlap_percent = 0
;material_allowance = 0.5
;
;PYCAM_TOOLPATH_SETTINGS: END
T1 M6
G0 Z25.0000
M3 (start spindle)
G04 P3 (wait for 3 seconds)
 X-11.5000 Y-3.5000
G1 Z0.0000
 X141.5000
 Y-0.5000
 X125.7850
G0 Z25.0000
 X4.2150
G1 Z0.0000
 X-11.5000
 Y2.5000
 X0.6792
G0 Z25.0000
 X129.3208
G1 Z0.0000
 X141.5000
 Y5.5000
 X131.0978
G0 Z25.0000
 X-1.0978
G1 Z0.0000
 X-11.5000
 Y8.5000
 X-1.8534
G0 Z25.0000
 X10.4293
G1 Z0.0000
 X119.5707
G0 Z25.0000
 X131.8534
G1 Z0.0000
 X141.5000
 Y11.5000
 X132.0000
G0 Z25.0000
 X122.1536
G1 Z0.0000
 X7.8464
G0 Z25.0000
 X-2.0000
G1 Z0.0000
 X-11.5000
 Y14.5000
 X-2.0000
G0 Z25.0000
 X7.0636
G1 Z0.0000
 X122.9364
G0 Z25.0000
 X132.0000
G1 Z0.0000
 X141.5000
 Y17.5000
 X132.0000
G0 Z25.0000
 X123.0000
G1 Z0.0000
 X7.0000
G0 Z25.0000
 X-2.0000
G1 Z0.0000
 X-11.5000
 Y20.5000
 X-2.0000
G0 Z25.0000
 X7.0000
G1 Z0.0000
 X123.0000
G0 Z25.0000
 X132.0000
G1 Z0.0000
 X141.5000
 Y23.5000
 X132.0000
G0 Z25.0000
 X123.0000
G1 Z0.0000
 X7.0000
G0 Z25.0000
 X-2.0000
G1 Z0.0000
 X-11.5000
 Y26.5000
 X-2.0000
G0 Z25.0000
 X7.0000
G1 Z0.0000
 X123.0000
G0 Z25.0000
 X132.0000
G1 Z0.0000
 X141.5000
 Y29.5000
 X132.0000
G0 Z25.0000
 X123.0000
G1 Z0.0000
 X7.0000
G0 Z25.0000
 X-2.0000
G1 Z0.0000
 X-11.5000
 Y32.5000
 X-2.0000
G0 Z25.0000
 X7.0000
G1 Z0.0000
 X123.0000
G0 Z25.0000
 X132.0000
G1 Z0.0000
 X141.5000
 Y35.5000
 X132.0000
G0 Z25.0000
 X122.9364
G1 Z0.0000
 X7.0636
G0 Z25.0000
 X-2.0000
G1 Z0.0000
 X-11.5000
 Y38.5000
 X-2.0000
G0 Z25.0000
 X7.8464
G1 Z0.0000
 X122.1536
G0 Z25.0000
 X132.0000
G1 Z0.0000
 X141.5000
 Y41.5000
 X131.8534
G0 Z25.0000
 X119.5707
G1 Z0.0000
 X10.4293
G0 Z25.0000
 X-1.8534
G1 Z0.0000
 X-11.5000
 Y44.5000
 X-1.0978
G0 Z25.0000
 X131.0978
G1 Z0.0000
 X141.5000
 Y47.5000
 X129.3208
G0 Z25.0000
 X0.6792
G1 Z0.0000
 X-11.5000
 Y50.5000
 X4.2150
G0 Z25.0000
 X125.7850
G1 Z0.0000
 X141.5000
 Y53.5000
 X-11.5000
 Z-2.5000
 X141.5000
 Y50.5000
 X125.7850
G0 Z25.0000
 X4.2150
G1 Z-2.5000
 X-11.5000
 Y47.5000
 X0.6792
G0 Z25.0000
 X129.3208
G1 Z-2.5000
 X141.5000
 Y44.5000
 X131.0978
G0 Z25.0000
 X-1.0978
G1 Z-2.5000
 X-11.5000
 Y41.5000
 X-1.8534
G0 Z25.0000
 X10.4293
G1 Z-2.5000
 X119.5707
G0 Z25.0000
 X131.8534
G1 Z-2.5000
 X141.5000
 Y38.5000
 X132.0000
G0 Z25.0000
 X122.1536
G1 Z-2.5000
 X7.8464
G0 Z25.0000
 X-2.0000
G1 Z-2.5000
 X-11.5000
 Y35.5000
 X-2.0000
G0 Z25.0000
 X7.0636
G1 Z-2.5000
 X122.9364
G0 Z25.0000
 X132.0000
G1 Z-2.5000
 X141.5000
 Y32.5000
 X132.0000
G0 Z25.0000
 X123.0000
G1 Z-2.5000
 X116.6351
G0 Z25.0000
 X51.1080
G1 Z-2.5000
 X45.5765
G0 Z25.0000
 X19.8468
G1 Z-2.5000
 X7.0000
G0 Z25.0000
 X-2.0000
G1 Z-2.5000
 X-11.5000
 Y29.5000
 X-2.0000
G0 Z25.0000
 X7.0000
G1 Z-2.5000
 X18.4783
G0 Z25.0000
 X44.6963
G1 Z-2.5000
 X49.7413
G0 Z25.0000
 X117.5756
G1 Z-2.5000
 X123.0000
G0 Z25.0000
 X132.0000
G1 Z-2.5000
 X141.5000
 Y26.5000
 X132.0000
G0 Z25.0000
 X123.0000
G1 Z-2.5000
 X116.3532
G0 Z25.0000
 X108.5486
G1 Z-2.5000
 X107.2589
G0 Z25.0000
 X99.3718
G1 Z-2.5000
 X98.0826
G0 Z25.0000
 X68.2669
G1 Z-2.5000
 X61.3231
G0 Z25.0000
 X48.3747
G1 Z-2.5000
 X43.3250
G0 Z25.0000
 X30.2433
G1 Z-2.5000
 X24.9834
G0 Z25.0000
 X17.1098
G1 Z-2.5000
 X7.0000
G0 Z25.0000
 X-2.0000
G1 Z-2.5000
 X-11.5000
 Y23.5000
 X-2.0000
G0 Z25.0000
 X7.0000
G1 Z-2.5000
 X15.7413
G0 Z25.0000
 X96.7194
G1 Z-2.5000
 X98.0024
G0 Z25.0000
 X105.8961
G1 Z-2.5000
 X107.1786
G0 Z25.0000
 X114.9836
G1 Z-2.5000
 X123.0000
G0 Z25.0000
 X132.0000
G1 Z-2.5000
 X141.5000
 Y20.5000
 X132.0000
G0 Z25.0000
 X123.0000
G1 Z-2.5000
 X113.4693
G0 Z25.0000
 X107.2547
G1 Z-2.5000
 X104.3873
G0 Z25.0000
 X98.0787
G1 Z-2.5000
 X95.2103
G0 Z25.0000
 X72.5397
G1 Z-2.5000
 X71.5383
G0 Z25.0000
 X55.0829
G1 Z-2.5000
 X53.3909
G0 Z25.0000
 X35.8507
G1 Z-2.5000
 X33.7180
G0 Z25.0000
 X14.3728
G1 Z-2.5000
 X7.0000
G0 Z25.0000
 X-2.0000
G1 Z-2.5000
 X-11.5000
 Y17.5000
 X-2.0000
G0 Z25.0000
 X7.0000
G1 Z-2.5000
 X13.0499
G0 Z25.0000
 X20.7736
G1 Z-2.5000
 X32.9999
G0 Z25.0000
 X51.6168
G1 Z-2.5000
 X123.0000
G0 Z25.0000
 X132.0000
G1 Z-2.5000
 X141.5000
 Y14.5000
 X132.0000
G0 Z25.0000
 X122.9364
G1 Z-2.5000
 X7.0636
G0 Z25.0000
 X-2.0000
G1 Z-2.5000
 X-11.5000
 Y11.5000
 X-2.0000
G0 Z25.0000
 X7.8464
G1 Z-2.5000
 X122.1536
G0 Z25.0000
 X132.0000
G1 Z-2.5000
 X141.5000
 Y8.5000
 X131.8534
G0 Z25.0000
 X119.5707
G1 Z-2.5000
 X10.4293
G0 Z25.0000
 X-1.8534
G1 Z-2.5000
 X-11.5000
 Y5.5000
 X-1.0978
G0 Z25.0000
 X131.0978
G1 Z-2.5000
 X141.5000
 Y2.5000
 X129.3208
G0 Z25.0000
 X0.6792
G1 Z-2.5000
 X-11.5000
 Y-0.5000
 X4.2150
G0 Z25.0000
 X125.7850
G1 Z-2.5000
 X141.5000
 Y-3.5000
 X-11.5000
 Z-5.0000
 X141.5000
 Y-0.5000
 X125.7850
G0 Z25.0000
 X4.2150
G1 Z-5.0000
 X-11.5000
 Y2.5000
 X0.6792
G0 Z25.0000
 X129.3208
G1 Z-5.0000
 X141.5000
 Y5.5000
 X131.0978
G0 Z25.0000
 X-1.0978
G1 Z-5.0000
 X-11.5000
 Y8.5000
 X-1.8534
G0 Z25.0000
 X131.8534
G1 Z-5.0000
 X141.5000
 Y11.5000
 X132.0000
G0 Z25.0000
 X-2.0000
G1 Z-5.0000
 X-11.5000
 Y14.5000
 X-2.0000
G0 Z25.0000
 X132.0000
G1 Z-5.0000
 X141.5000
 Y17.5000
 X132.0000
G0 Z25.0000
 X-2.0000
G1 Z-5.0000
 X-11.5000
 Y20.5000
 X-2.0000
G0 Z25.0000
 X132.0000
G1 Z-5.0000
 X141.5000
 Y23.5000
 X132.0000
G0 Z25.0000
 X-2.0000
G1 Z-5.0000
 X-11.5000
 Y26.5000
 X-2.0000
G0 Z25.0000
 X132.0000
G1 Z-5.0000
 X141.5000
 Y29.5000
 X132.0000
G0 Z25.0000
 X-2.0000
G1 Z-5.0000
 X-11.5000
 Y32.5000
 X-2.0000
G0 Z25.0000
 X132.0000
G1 Z-5.0000
 X141.5000
 Y35.5000
 X132.0000
G0 Z25.0000
 X-2.0000
G1 Z-5.0000
 X-11.5000
 Y38.5000
 X-2.0000
G0 Z25.0000
 X132.0000
G1 Z-5.0000
 X141.5000
 Y41.5000
 X131.8534
G0 Z25.0000
 X-1.8534
G1 Z-5.0000
 X-11.5000
 Y44.5000
 X-1.0978
G0 Z25.0000
 X131.0978
G1 Z-5.0000
 X141.5000
 Y47.5000
 X129.3208
G0 Z25.0000
 X0.6792
G1 Z-5.0000
 X-11.5000
 Y50.5000
 X4.2150
G0 Z25.0000
 X125.7850
G1 Z-5.0000
 X141.5000
 Y53.5000
 X-11.5000
 Z-7.5000
 X141.5000
 Y50.5000
 X125.7850
G0 Z25.0000
 X4.2150
G1 Z-7.5000
 X-11.5000
 Y47.5000
 X0.6792
G0 Z25.0000
 X129.3208
G1 Z-7.5000
 X141.5000
 Y44.5000
 X131.0978
G0 Z25.0000
 X-1.0978
G1 Z-7.5000
 X-11.5000
 Y41.5000
 X-1.8534
G0 Z25.0000
 X131.8534
G1 Z-7.5000
 X141.5000
 Y38.5000
 X132.0000
G0 Z25.0000
 X-2.0000
G1 Z-7.5000
 X-11.5000
 Y35.5000
 X-2.0000
G0 Z25.0000
 X132.0000
G1 Z-7.5000
 X141.5000
 Y32.5000
 X132.0000
G0 Z25.0000
 X-2.0000
G1 Z-7.5000
 X-11.5000
 Y29.5000
 X-2.0000
G0 Z25.0000
 X132.0000
G1 Z-7.5000
 X141.5000
 Y26.5000
 X132.0000
G0 Z25.0000
 X-2.0000
G1 Z-7.5000
 X-11.5000
 Y23.5000
 X-2.0000
G0 Z25.0000
 X132.0000
G1 Z-7.5000
 X141.5000
 Y20.5000
 X132.0000
G0 Z25.0000
 X-2.0000
G1 Z-7.5000
 X-11.5000
 Y17.5000
 X-2.0000
G0 Z25.0000
 X132.0000
G1 Z-7.5000
 X141.5000
 Y14.5000
 X132.0000
G0 Z25.0000
 X-2.0000
G1 Z-7.5000
 X-11.5000
 Y11.5000
 X-2.0000
G0 Z25.0000
 X132.0000
G1 Z-7.5000
 X141.5000
 Y8.5000
 X131.8534
G0 Z25.0000
 X-1.8534
G1 Z-7.5000
 X-11.5000
 Y5.5000
 X-1.0978
G0 Z25.0000
 X131.0978
G1 Z-7.5000
 X141.5000
 Y2.5000
 X129.3208
G0 Z25.0000
 X0.6792
G1 Z-7.5000
 X-11.5000
 Y-0.5000
 X4.2150
G0 Z25.0000
 X125.7850
G1 Z-7.5000
 X141.5000
 Y-3.5000
 X-11.5000
 Z-10.0000
 X141.5000
 Y-0.5000
 X125.7850
G0 Z25.0000
 X4.2150
G1 Z-10.0000
 X-11.5000
 Y2.5000
 X0.6792
G0 Z25.0000
 X129.3208
G1 Z-10.0000
 X141.5000
 Y5.5000
 X131.0978
G0 Z25.0000
 X-1.0978
G1 Z-10.0000
 X-11.5000
 Y8.5000
 X-1.8534
G0 Z25.0000
 X131.8534
G1 Z-10.0000
 X141.5000
 Y11.5000
 X132.0000
G0 Z25.0000
 X-2.0000
G1 Z-10.0000
 X-11.5000
 Y14.5000
 X-2.0000
G0 Z25.0000
 X132.0000
G1 Z-10.0000
 X141.5000
 Y17.5000
 X132.0000
G0 Z25.0000
 X-2.0000
G1 Z-10.0000
 X-11.5000
 Y20.5000
 X-2.0000
G0 Z25.0000
 X132.0000
G1 Z-10.0000
 X141.5000
 Y23.5000
 X132.0000
G0 Z25.0000
 X-2.0000
G1 Z-10.0000
 X-11.5000
 Y26.5000
 X-2.0000
G0 Z25.0000
 X132.0000
G1 Z-10.0000
 X141.5000
 Y29.5000
 X132.0000
G0 Z25.0000
 X-2.0000
G1 Z-10.0000
 X-11.5000
 Y32.5000
 X-2.0000
G0 Z25.0000
 X132.0000
G1 Z-10.0000
 X141.5000
 Y35.5000
 X132.0000
G0 Z25.0000
 X-2.0000
G1 Z-10.0000
 X-11.5000
 Y38.5000
 X-2.0000
G0 Z25.0000
 X132.0000
G1 Z-10.0000
 X141.5000
 Y41.5000
 X131.8534
G0 Z25.0000
 X-1.8534
G1 Z-10.0000
 X-11.5000
 Y44.5000
 X-1.0978
G0 Z25.0000
 X131.0978
G1 Z-10.0000
 X141.5000
 Y47.5000
 X129.3208
G0 Z25.0000
 X0.6792
G1 Z-10.0000
 X-11.5000
 Y50.5000
 X4.2150
G0 Z25.0000
 X125.7850
G1 Z-10.0000
 X141.5000
 Y53.5000
 X-11.5000
G0 Z25.0000
M5 (stop spindle)
G04 P3 (wait for 3 seconds)
G0 Z25.0000
M2 (end program)
