;PYCAM-META-DATA: Filename: C:\Users\Ryan\Documents\3dStlFiles\CNC\pycam.stl
;PYCAM-META-DATA: Timestamp: 2012-12-04 20:23:29.169000
;PYCAM-META-DATA: Version: 0.5.1.1
;Estimated machine time: 142 minutes
G40 (disable tool radius compensation)
G49 (disable tool length compensation)
G80 (cancel modal motion)
G54 (select coordinate system 1)
G90 (disable incremental moves)
G21 (metric)
G61 (exact path mode)
F200.00000
S1000.00000
;PYCAM_TOOLPATH_SETTINGS: START
;[Bounds]
;maxz = 0.0
;maxx = 142.0
;maxy = 54.0
;minx = -12.0
;miny = -4.0
;minz = -10.0
;
;[Tool]
;torus_radius = 0.2
;speed = 1000.0
;shape = ToroidalCutter
;tool_radius = 1.0
;feedrate = 200.0
;
;[Process]
;generator = ContourFollow
;pocketing_type = none
;engrave_offset = 0.0
;milling_style = conventional
;path_direction = x
;step_down = 1.5
;postprocessor = SimpleCutter
;overlap_percent = 0
;material_allowance = 0.0
;
;PYCAM_TOOLPATH_SETTINGS: END
T2 M6
G0 Z25.0000
M3 (start spindle)
G04 P3 (wait for 3 seconds)
 X120.2909 Y-0.7452
G1 Z0.0000
 X121.1294
 X123.3387 Y-0.2756
 X125.4022 Y0.6431
 X127.2296 Y1.9708
 X128.7410 Y3.6493
 X129.8703 Y5.6054
 X130.5683 Y7.7536
 X130.8000 Y9.9581
 Y40.0419
 X130.5683 Y42.2464
 X129.8703 Y44.3946
 X128.7410 Y46.3507
 X127.2296 Y48.0292
 X125.4022 Y49.3569
 X123.3388 Y50.2756
 X121.1294 Y50.7452
 X120.2909
G0 Z25.0000
 X115.0000 Y44.1452
G1 Z0.0000
 X115.9612
 X117.8416 Y43.7455
 X119.5978 Y42.9636
 X121.1530 Y41.8337
 X122.4394 Y40.4050
 X123.4006 Y38.7402
 X123.9946 Y36.9119
 X124.2000 Y34.9581
 Y15.0419
 X123.9946 Y13.0881
 X123.4006 Y11.2598
 X122.4394 Y9.5950
 X121.1530 Y8.1663
 X119.5978 Y7.0364
 X117.8416 Y6.2545
 X115.4150 Y5.7387
G0 Z25.0000
 X120.0000 Y50.8000
G1 Z0.0000
 X10.0000
G0 Z25.0000
 Y-0.8000
G1 Z0.0000
 X120.0000
G0 Z25.0000
 X14.5850 Y5.7387
G1 Z0.0000
 X12.1584 Y6.2545
 X10.4022 Y7.0364
 X8.8470 Y8.1663
 X7.5606 Y9.5950
 X6.5994 Y11.2598
 X6.0054 Y13.0881
 X5.8000 Y15.0419
 Y34.9581
 X6.0054 Y36.9119
 X6.5994 Y38.7402
 X7.5606 Y40.4050
 X8.8470 Y41.8337
 X10.4022 Y42.9636
 X12.1584 Y43.7455
 X14.0388 Y44.1452
 X15.0000
G0 Z25.0000
 X9.7091 Y50.7452
G1 Z0.0000
 X8.8706
 X6.6613 Y50.2756
 X4.5978 Y49.3569
 X2.7704 Y48.0292
 X1.2590 Y46.3507
 X0.1297 Y44.3946
 X-0.5683 Y42.2464
 X-0.8000 Y40.0419
 Y9.9581
 X-0.5683 Y7.7536
 X0.1297 Y5.6054
 X1.2590 Y3.6493
 X2.7704 Y1.9708
 X4.5978 Y0.6431
 X6.6613 Y-0.2756
 X8.8706 Y-0.7452
 X9.7091
G0 Z25.0000
 X131.0000 Y10.0000
G1 Z-1.4286
 Y40.0524
G0 Z25.0000
 X115.0000 Y43.9452
G1 Z-1.4286
 X115.9402
 X117.7794 Y43.5543
 X119.4972 Y42.7895
 X121.0185 Y41.6842
 X122.2767 Y40.2868
 X123.2169 Y38.6584
 X123.7979 Y36.8701
 X124.0000 Y34.9476
G0 Z25.0000
 X123.8494 Y13.6194
G1 Z-1.4286
 X123.7979 Y13.1299
G0 Z25.0000
 X130.7760 Y7.8164
G1 Z-1.4286
 X131.0000 Y9.9476
G0 Z25.0000
 X130.0865 Y5.6236
G1 Z-1.4286
 X130.7650 Y7.7118
G0 Z25.0000
 X125.5878 Y0.5307
G1 Z-1.4286
 X127.3641 Y1.8213
G0 Z25.0000
 X121.2532 Y-0.9234
G1 Z-1.4286
 X123.4009 Y-0.4669
G0 Z25.0000
 X120.3264 Y-0.9452
G1 Z-1.4286
 X121.1504
G0 Z25.0000
 X122.5228 Y10.1394
G1 Z-1.4286
 X122.2767 Y9.7132
G0 Z25.0000
 X118.2291 Y6.6459
G1 Z-1.4286
 X117.7794 Y6.4457
 X116.4216 Y6.1571
 X115.9402 Y6.0548
G0 Z25.0000
 X15.3264 Y44.0000
G1 Z-1.4286
 X114.6736
G0 Z25.0000
 X10.0000 Y-1.0000
G1 Z-1.4286
 X120.0000
G0 Z25.0000
 X6.3542 Y12.6618
G1 Z-1.4286
 X6.2021 Y13.1300
 X6.0000 Y15.0524
 Y34.9476
G0 Z25.0000
 X6.7831 Y38.6584
G1 Z-1.4286
 X7.7233 Y40.2868
G0 Z25.0000
 X12.2206 Y43.5543
G1 Z-1.4286
 X14.0598 Y43.9452
 X15.0000
G0 Z25.0000
 X8.9547 Y-0.9452
G1 Z-1.4286
 X9.6736
G0 Z25.0000
 X6.7019 Y-0.4887
G1 Z-1.4286
 X8.8496 Y-0.9452
G0 Z25.0000
 X2.7209 Y1.7595
G1 Z-1.4286
 X4.4972 Y0.4689
G0 Z25.0000
 X1.1667 Y3.4530
G1 Z-1.4286
 X2.6359 Y1.8213
G0 Z25.0000
 X-1.0000 Y9.9476
G1 Z-1.4286
 X-0.7650 Y7.7118
 X-0.0540 Y5.5237
 X1.0963 Y3.5311
G0 Z25.0000
 X125.8294 Y49.2937
G1 Z-1.4286
 X125.5878 Y49.4693
G0 Z25.0000
 X130.1788 Y44.0924
G1 Z-1.4286
 X130.0865 Y44.3764
G0 Z25.0000
 X130.8072 Y41.8866
G1 Z-1.4286
 X130.7760 Y42.1836
G0 Z25.0000
 X123.7697 Y50.3026
G1 Z-1.4286
 X123.4969 Y50.4241
 X121.5453 Y50.8613
 X121.2532 Y50.9234
G0 Z25.0000
 X115.0000 Y43.9452
G1 Z-1.4286
 X115.2987
G0 Z25.0000
 X121.0185 Y41.6842
G1 Z-1.4286
 X121.3478 Y41.3184
G0 Z25.0000
 X123.2169 Y38.6584
G1 Z-1.4286
 X123.3690 Y38.1903
G0 Z25.0000
 X119.4972 Y42.7895
G1 Z-1.4286
 X119.8954 Y42.5001
G0 Z25.0000
 X117.7794 Y43.5543
G1 Z-1.4286
 X118.2291 Y43.3541
G0 Z25.0000
 X123.7979 Y36.8701
G1 Z-1.4286
 X123.8494 Y36.3806
G0 Z25.0000
 X124.0000 Y20.7143
G1 Z-1.4286
 Y15.0523
G0 Z25.0000
 X131.0000 Y40.0524
G1 Z-1.4286
 X130.7650 Y42.2882
 X130.0540 Y44.4763
 X129.1055 Y46.1192
 X128.9037 Y46.4689
 X127.6343 Y47.8786
 X127.3641 Y48.1787
 X125.5028 Y49.5311
 X123.4009 Y50.4669
 X121.1504 Y50.9452
 X120.3264
G0 Z25.0000
 X115.9402 Y43.9452
G1 Z-1.4286
 X116.4216 Y43.8429
 X117.7794 Y43.5543
G0 Z25.0000
 X122.2767 Y40.2868
G1 Z-1.4286
 X122.5228 Y39.8606
 X123.2169 Y38.6584
G0 Z25.0000
 X124.0000 Y34.9476
G1 Z-1.4286
 Y15.0524
 X123.7979 Y13.1299
 X123.3690 Y11.8097
 X123.2169 Y11.3416
 X123.7979 Y13.1299
 X123.2169 Y11.3416
 X122.2767 Y9.7131
G0 Z25.0000
 X131.0000 Y9.9476
G1 Z-1.4286
 Y14.2857
G0 Z25.0000
 X130.7650 Y7.7118
G1 Z-1.4286
 X130.8072 Y8.1134
G0 Z25.0000
 X127.3641 Y1.8213
G1 Z-1.4286
 X127.6343 Y2.1214
 X128.9037 Y3.5311
 X129.1055 Y3.8808
 X130.0540 Y5.5237
 X130.1788 Y5.9076
G0 Z25.0000
 X119.8954 Y7.4999
G1 Z-1.4286
 X119.4972 Y7.2105
G0 Z25.0000
 X123.4009 Y-0.4669
G1 Z-1.4286
 X123.7697 Y-0.3026
 X125.5028 Y0.4689
 X125.8294 Y0.7063
G0 Z25.0000
 X121.1504 Y-0.9452
G1 Z-1.4286
 X121.5453 Y-0.8613
G0 Z25.0000
 X122.2767 Y9.7132
G1 Z-1.4286
 X121.3478 Y8.6816
 X121.0185 Y8.3158
 X119.4972 Y7.2105
 X117.7794 Y6.4457
 X115.9401 Y6.0548
 X115.2987
 X115.0000
 X115.9402
 X115.0000
G0 Z25.0000
 X15.3264 Y44.0000
G1 Z-1.4286
 X43.5714
G0 Z25.0000
 X120.0000 Y51.0000
G1 Z-1.4286
 X10.0000
G0 Z25.0000
 X25.7143
G1 Z-1.4286
 X10.0000
G0 Z25.0000
 X43.5714 Y6.0000
G1 Z-1.4286
 X15.3264
G0 Z25.0000
 X114.6736
G1 Z-1.4286
 X15.3264
G0 Z25.0000
 X10.0000 Y-1.0000
G1 Z-1.4286
 X25.7143
G0 Z25.0000
 X14.0598 Y43.9452
G1 Z-1.4286
 X14.2534
G0 Z25.0000
 X12.2205 Y43.5542
G1 Z-1.4286
 X12.7020 Y43.6566
G0 Z25.0000
 X9.6736 Y50.9452
G1 Z-1.4286
 X8.9547
 X9.1040
 X8.8496
 X6.9940 Y50.5508
 X6.5991 Y50.4669
 X4.8661 Y49.6953
 X4.4972 Y49.5311
 X2.9625 Y48.4160
 X2.6359 Y48.1787
 X1.3665 Y46.7689
 X1.0963 Y46.4689
 X-0.0015 Y44.5674
G0 Z25.0000
 X6.7831 Y38.6583
G1 Z-1.4286
 X7.0292 Y39.0846
G0 Z25.0000
 X0.1478 Y44.8260
G1 Z-1.4286
 X-0.0540 Y44.4763
 X-0.6403 Y42.6722
 X-0.7650 Y42.2882
 X-0.9945 Y40.1045
G0 Z25.0000
 X6.0000 Y15.0523
G1 Z-1.4286
 Y20.7143
G0 Z25.0000
 X14.2534 Y6.0548
G1 Z-1.4286
 X14.0598
G0 Z25.0000
 X-0.9633 Y40.4015
G1 Z-1.4286
 X-1.0000 Y40.0524
 Y9.9476
 X-0.9633 Y9.5985
G0 Z25.0000
 X15.0000 Y6.0548
G1 Z-1.4286
 X14.0598
 X12.7020 Y6.3434
 X12.2206 Y6.4457
 X10.9524 Y7.0104
 X10.5028 Y7.2106
 X9.3797 Y8.0265
 X8.9815 Y8.3158
 X8.0527 Y9.3474
 X7.7233 Y9.7132
 X7.0292 Y10.9154
 X6.7831 Y11.3416
 X6.2021 Y13.1299
 X6.0570 Y14.5105
 X6.0000 Y15.0524
G0 Z25.0000
 Y34.9476
G1 Z-1.4286
 X6.0570 Y35.4895
 X6.2021 Y36.8701
 X6.3542 Y37.3382
 X6.7831 Y38.6584
 X7.7233 Y40.2868
 X8.0527 Y40.6526
 X8.9815 Y41.6842
 X9.3797 Y41.9735
 X10.5028 Y42.7894
 X10.9524 Y42.9896
 X12.2206 Y43.5543
G0 Z25.0000
 X8.8496 Y-0.9452
G1 Z-1.4286
 X9.1040
G0 Z25.0000
 X4.4972 Y0.4689
G1 Z-1.4286
 X4.8661 Y0.3047
 X6.5991 Y-0.4669
 X6.9940 Y-0.5508
G0 Z25.0000
 X2.6359 Y1.8213
G1 Z-1.4286
 X2.9625 Y1.5840
G0 Z25.0000
 X-0.7325 Y7.6119
G1 Z-1.4286
 X-0.6403 Y7.3278
 X-0.0015 Y5.4326
 X0.1478 Y5.1740
G0 Z25.0000
 X-1.0000 Y14.2857
G1 Z-1.4286
 Y9.9476
G0 Z25.0000
 X1.0963 Y3.5311
G1 Z-1.4286
 X1.3665 Y3.2311
G0 Z25.0000
 X41.4286 Y51.0000
G1 Z-2.8571
 X10.0000
G0 Z25.0000
 X115.0000 Y43.9452
G1 Z-2.8571
 X115.5973
G0 Z25.0000
 X123.2169 Y38.6584
G1 Z-2.8571
 X123.5535 Y37.6222
G0 Z25.0000
 X115.9401 Y43.9452
G1 Z-2.8571
 X117.0059 Y43.7187
G0 Z25.0000
 X116.5432 Y30.7047
G1 Z-2.8571
 X116.5292 Y30.7638
 X115.4267 Y32.2041
 X115.3665 Y32.2462
 X115.0943 Y32.4038
 X115.0245 Y32.4427
 X114.0280 Y32.8169
 X113.8997 Y32.8535
 X113.4269 Y32.9377
 X113.2915 Y32.9599
G0 Z25.0000
 X124.0000 Y26.4286
G1 Z-2.8571
 Y15.0523
G0 Z25.0000
 X131.0000 Y10.0000
G1 Z-2.8571
 Y40.0524
G0 Z25.0000
 X116.4763 Y29.2097
G1 Z-2.8571
 X116.5839 Y29.6073
 X116.5995 Y29.7770
 X116.6274 Y30.0814
 X116.6089 Y30.3300
 X116.5984 Y30.4710
 X116.5103 Y30.8441
 X116.4167 Y31.0677
 X116.3631 Y31.1957
 X116.2360 Y31.4013
 X116.1632 Y31.5192
 X116.0020 Y31.7078
 X115.9154 Y31.8091
 X115.7280 Y31.9754
 X115.6337 Y32.0592
 X115.3244 Y32.2757
 X114.9783 Y32.4684
 X114.6072 Y32.6264
 X114.4285 Y32.7025
 X113.8438 Y32.8695
 X113.2369 Y32.9688
 X112.6608 Y32.9987
G0 Z25.0000
 X111.0185 Y29.5224
G1 Z-2.8571
 X110.9870 Y29.4321
G0 Z25.0000
 X112.9757 Y21.5097
G1 Z-2.8571
 X116.4548 Y29.1304
 X116.4995 Y29.2956
G0 Z25.0000
 X123.5535 Y12.3778
G1 Z-2.8571
 X123.2169 Y11.3416
G0 Z25.0000
 X115.0000 Y43.9452
G1 Z-2.8571
 X115.9402
 X117.7794 Y43.5543
 X118.7748 Y43.1111
 X119.4972 Y42.7894
 X120.3787 Y42.1491
 X121.0185 Y41.6842
 X121.7475 Y40.8745
 X122.2767 Y40.2868
 X122.8214 Y39.3433
 X123.2169 Y38.6584
 X123.7979 Y36.8701
 X123.9118 Y35.7865
 X124.0000 Y34.9476
 Y15.0524
 X123.9118 Y14.2135
 X123.7979 Y13.1299
 X123.2169 Y11.3416
 X122.2767 Y9.7131
G0 Z25.0000
 X128.9562 Y3.6221
G1 Z-2.8571
 X130.0540 Y5.5237
G0 Z25.0000
 X127.4345 Y1.8994
G1 Z-2.8571
 X128.9037 Y3.5311
G0 Z25.0000
 X125.5878 Y0.5307
G1 Z-2.8571
 X127.3641 Y1.8213
G0 Z25.0000
 X120.3787 Y7.8509
G1 Z-2.8571
 X119.4972 Y7.2105
G0 Z25.0000
 X120.3264 Y-0.9452
G1 Z-2.8571
 X121.1504
G0 Z25.0000
 X122.8214 Y10.6567
G1 Z-2.8571
 X122.2767 Y9.7132
 X121.7475 Y9.1255
 X121.0185 Y8.3158
 X119.4972 Y7.2106
 X118.7748 Y6.8889
 X117.7794 Y6.4457
 X115.9401 Y6.0548
 X115.5973
 X115.0000
G0 Z25.0000
 X117.0059 Y6.2813
G1 Z-2.8571
 X115.9402 Y6.0548
 X115.0000
G0 Z25.0000
 X110.9986 Y29.4652
G1 Z-2.8571
 X110.9871 Y29.4322
 X107.1020 Y20.9250
 X112.7088
 X113.9183 Y23.5743
G0 Z25.0000
 X108.6398 Y24.2923
G1 Z-2.8571
 X107.1020 Y20.9250
 X109.5905
G0 Z25.0000
 X112.8033 Y32.9913
G1 Z-2.8571
 X112.6349 Y33.0000
 X94.9120
G0 Z25.0000
 X106.8970 Y29.5390
G1 Z-2.8571
 X107.3214
 X107.5411
 X110.7692
 X110.8259 Y29.5363
 X110.9797 Y29.5290
 X110.9905 Y29.5271
 X111.0185 Y29.5224
G0 Z25.0000
 X103.8945 Y21.5114
G1 Z-2.8571
 X107.5411 Y29.5390
 X107.9630
G0 Z25.0000
 X97.7210
G1 Z-2.8571
 X98.1453
 X98.3650
 X101.8583
 X97.9263 Y20.9250
 X103.6281
 X104.9651 Y23.8683
G0 Z25.0000
 X99.6481 Y24.6971
G1 Z-2.8571
 X97.9263 Y20.9250
 X100.4402
G0 Z25.0000
 X94.7174 Y21.5113
G1 Z-2.8571
 X98.3650 Y29.5390
 X99.2786
G0 Z25.0000
 X99.7540 Y33.0000
G1 Z-2.8571
 X94.2685
 X92.9751 Y30.1590
G0 Z25.0000
 X88.7977 Y20.9837
G1 Z-2.8571
 X88.7709 Y20.9250
 X94.4510
 X95.7883 Y23.8682
G0 Z25.0000
 X88.7977 Y20.9837
G1 Z-2.8571
 X88.7709 Y20.9250
 X91.2777
G0 Z25.0000
 X92.9751 Y30.1590
G1 Z-2.8571
 X92.9660 Y30.2903
 X92.9565 Y30.4289
 X92.8911 Y30.7224
 X92.9045 Y30.6622
 X92.8737 Y30.8005
 X92.7621 Y31.0808
 X92.7845 Y31.0245
 X92.7332 Y31.1536
 X92.6097 Y31.3618
 X92.5400 Y31.4794
 X92.3455 Y31.7175
 X92.3858 Y31.6683
 X92.3019 Y31.7710
 X92.1198 Y31.9400
 X92.0277 Y32.0255
 X91.7679 Y32.2158
 X91.8262 Y32.1731
 X91.7240 Y32.2479
 X91.4309 Y32.4171
 X91.4982 Y32.3782
 X91.3849 Y32.4436
 X91.0153 Y32.6075
 X90.8381 Y32.6861
 X90.3142 Y32.8450
 X90.4414 Y32.8064
 X90.2545 Y32.8631
 X89.7030 Y32.9576
 X89.8370 Y32.9346
 X89.6461 Y32.9674
 X89.0755 Y32.9985
G0 Z25.0000
 X89.3702 Y21.5108
G1 Z-2.8571
 X89.3933 Y21.5617
G0 Z25.0000
 X87.1782 Y29.5200
G1 Z-2.8571
 X87.3384 Y29.5115
 X87.3430 Y29.5107
 X87.4401 Y29.4942
G0 Z25.0000
 X79.4588 Y26.0190
G1 Z-2.8571
 X81.6348
G0 Z25.0000
 X89.2159 Y32.9909
G1 Z-2.8571
 X89.0483 Y33.0000
 X76.6440
G0 Z25.0000
 X87.4538 Y29.4790
G1 Z-2.8571
 X77.6170
G0 Z25.0000
 X75.2380 Y20.9250
G1 Z-2.8571
 X89.1036
 X89.3933 Y21.5617
G0 Z25.0000
 X75.9690 Y29.5200
G1 Z-2.8571
 X87.1784
 X87.2186 Y29.5178
G0 Z25.0000
 X78.6228 Y25.9781
G1 Z-2.8571
 X78.8001 Y25.9980
 X78.8619 Y26.0014
 X79.0826 Y26.0134
 X79.1734 Y26.0147
 X79.4594 Y26.0190
 X85.8747
 X85.3906 Y24.9577
 X85.2320 Y24.6100
 X77.8313
G0 Z25.0000
 X79.8903
G1 Z-2.8571
 X77.8313
 X78.5825 Y25.9692
 X78.6229 Y25.9781
 X78.6413 Y25.9802
 X78.4037 Y25.8274
 X78.4688 Y25.9050
 X78.5152 Y25.9400
 X78.5826 Y25.9692
 X77.8313 Y24.6100
 X78.3041 Y25.6492
 X78.3293 Y25.6944
 X78.4037 Y25.8275
G0 Z25.0000
 X80.0304 Y33.0000
G1 Z-2.8571
 X76.0010
 X75.2438 Y31.3399
 X74.6937 Y30.1336
 X74.6266 Y29.5200
 X79.0433
 X80.4863 Y29.4790
 X77.5952
 X77.1244 Y29.4584
 X76.9056 Y29.4489
 X76.2943 Y29.3608
 X76.4481 Y29.3829
 X76.2368 Y29.3525
 X75.8137 Y29.2402
 X75.6086 Y29.1858
 X75.0948 Y28.9700
 X75.2179 Y29.0217
 X75.0235 Y28.9401
 X74.6722 Y28.7237
 X74.4926 Y28.6132
 X74.1843 Y28.3423
 X74.1554 Y28.3169
G0 Z25.0000
 X74.6144 Y20.9500
G1 Z-2.8571
 X74.9063 Y20.9316
 X75.0067 Y20.9296
 X75.2277 Y20.9250
 X78.8556
G0 Z25.0000
 X74.6181 Y30.7101
G1 Z-2.8571
 X74.6050 Y30.7689
 X74.5509 Y29.2236
 X74.6547 Y29.6300
 X74.6696 Y29.7937
 X74.6974 Y30.0999
 X74.6789 Y30.3480
 X74.6688 Y30.4829
 X74.5878 Y30.8459
 X74.5006 Y31.0659
 X74.4489 Y31.1966
 X74.3252 Y31.4035
 X74.2557 Y31.5198
 X74.0628 Y31.7539
G0 Z25.0000
 X74.1554 Y28.3169
G1 Z-2.8571
 X74.5289 Y29.1375
 X74.5739 Y29.3136
G0 Z25.0000
 X72.3199 Y21.9525
G1 Z-2.8571
 X72.3481 Y21.9200
 X72.5196 Y21.7362
 X72.5530 Y21.7069
 X72.9695 Y21.4041
 X73.0130 Y21.3808
 X72.1540 Y22.1903
 X72.2752 Y22.0041
 X72.4679 Y21.7815
 X72.6882 Y21.5883
 X72.7778 Y21.5275
 X72.9231 Y21.4289
 X73.1734 Y21.2951
 X73.2693 Y21.2558
 X73.4376 Y21.1868
 X73.5317 Y21.1572
 X73.7091 Y21.1013
 X73.8030 Y21.0790
 X73.9922 Y21.0342
 X74.0896 Y21.0179
 X74.2867 Y20.9851
 X74.3832 Y20.9744
 X74.5906 Y20.9514
 X74.6885 Y20.9453
G0 Z25.0000
 X69.5550 Y27.0300
G1 Z-2.8571
 X72.9260
G0 Z25.0000
 X74.1025 Y31.7057
G1 Z-2.8571
 X74.0190 Y31.8070
 X73.8399 Y31.9720
 X73.7478 Y32.0568
 X73.5478 Y32.2013
 X73.4465 Y32.2745
 X73.2241 Y32.4009
 X73.1116 Y32.4648
 X72.7465 Y32.6235
 X72.5694 Y32.7004
 X72.0487 Y32.8521
 X72.1745 Y32.8154
 X71.9918 Y32.8687
 X71.4474 Y32.9594
 X71.5804 Y32.9372
 X71.3919 Y32.9686
 X70.8248 Y32.9986
G0 Z25.0000
 X69.1336 Y29.5266
G1 Z-2.8571
 X69.1121 Y29.4723
 X69.1036 Y29.4508
 X68.7734 Y28.7263
 X68.0002 Y27.0300
 X70.4773
G0 Z25.0000
 X71.8654 Y23.0227
G1 Z-2.8571
 X71.9044 Y22.7957
 X71.9365 Y22.6920
 X71.9910 Y22.5156
 X72.0384 Y22.4145
 X72.1159 Y22.2488
 X72.1770 Y22.1550
G0 Z25.0000
 X73.3064 Y27.1052
G1 Z-2.8571
 X72.3688 Y25.0326
 X71.9746 Y24.1613
 X71.9138 Y23.9484
 X71.8699 Y23.7947
 X71.8402 Y23.3768
 X71.8554 Y23.0813
 X71.8731 Y22.9781
 X71.8494 Y23.5072
 X71.8402 Y23.3768
 X71.8458 Y23.2678
G0 Z25.0000
 X62.5928 Y24.3860
G1 Z-2.8571
 X59.5233
G0 Z25.0000
 X60.9590 Y29.5390
G1 Z-2.8571
 X61.3839
 X61.6035
 X68.9128
 X68.9677 Y29.5363
 X69.1189 Y29.5290
 X69.1296 Y29.5272
 X69.1336 Y29.5265
G0 Z25.0000
 X59.2783 Y24.4026
G1 Z-2.8571
 X59.3139 Y24.4911
 X60.0065 Y26.0182
 X61.6035 Y29.5390
 X63.1418
G0 Z25.0000
 X15.3264 Y44.0000
G1 Z-2.8571
 X72.1429
G0 Z25.0000
 X15.3264
G1 Z-2.8571
 X114.6736
G0 Z25.0000
 X72.1429 Y6.0000
G1 Z-2.8571
 X15.3264
G0 Z25.0000
 X114.6736
G1 Z-2.8571
 X15.3264
G0 Z25.0000
 X10.0000 Y-1.0000
G1 Z-2.8571
 X120.0000
G0 Z25.0000
 X70.9646 Y32.9912
G1 Z-2.8571
 X70.7984 Y33.0000
 X58.2620
G0 Z25.0000
 X57.6820 Y20.9250
G1 Z-2.8571
 X70.7750
 X71.2275 Y21.9058
 X71.8468 Y23.2483
 X72.0763 Y24.3860
 X59.5235
 X59.3354 Y24.3956
 X59.3130 Y24.3968
 X59.2783 Y24.4026
G0 Z25.0000
 X55.9338 Y21.2213
G1 Z-2.8571
 X56.4524 Y21.0635
 X56.6457 Y21.0297
 X57.0571 Y20.9577
 X57.2561 Y20.9468
 X57.6546 Y20.9250
 X61.0892
G0 Z25.0000
 X61.6848 Y33.0000
G1 Z-2.8571
 X57.6183
 X57.3459 Y32.4013
G0 Z25.0000
 X54.2248 Y22.4082
G1 Z-2.8571
 X54.2653 Y22.3579
 X54.4632 Y22.1260
 X54.5125 Y22.0792
 X54.7338 Y21.8786
 X54.7921 Y21.8351
G0 Z25.0000
 X51.7031 Y19.2066
G1 Z-2.8571
 X53.7532 Y23.7087
G0 Z25.0000
 X57.9634 Y32.9544
G1 Z-2.8571
 X57.9842 Y33.0000
 X53.0780
G0 Z25.0000
 X55.3777 Y21.4644
G1 Z-2.8571
 X55.8712 Y21.2404
 X56.0597 Y21.1830
 X55.0346 Y21.6610
 X55.3278 Y21.4871
 X55.4964 Y21.4105
G0 Z25.0000
 X53.7829 Y23.4416
G1 Z-2.8571
 X53.8489 Y23.1451
 X53.9001 Y23.0153
 X53.9875 Y22.7937
 X54.0568 Y22.6746
 X54.1775 Y22.4670
 X54.4147 Y22.1721
 X54.6863 Y21.9141
 X54.9892 Y21.6880
 X55.1019 Y21.6211
G0 Z25.0000
 X53.9951 Y33.0000
G1 Z-2.8571
 X52.4347
 X48.5957 Y24.5730
 X48.5046 Y24.3730
 X48.3290 Y23.9876
G0 Z25.0000
 X53.7829 Y24.3712
G1 Z-2.8571
 X53.7696 Y24.2274
 X53.7532 Y23.7087
 X53.7665 Y23.5152
 X53.7963 Y23.3814
G0 Z25.0000
 X46.9205 Y20.9226
G1 Z-2.8571
 X46.7306 Y20.5024
 X46.6127 Y20.3538
 X46.5719 Y20.3023
G0 Z25.0000
 X49.3794 Y26.2933
G1 Z-2.8571
 X48.5957 Y24.5730
 X41.3447
 X43.2666
 X41.3447
G0 Z25.0000
 X46.1846 Y19.9448
G1 Z-2.8571
 X46.1493 Y19.9163
 X45.9645 Y19.8019
 X45.9287 Y19.7797
G0 Z25.0000
 X50.7327 Y18.0400
G1 Z-2.8571
 X51.0503 Y18.3408
 X51.1492 Y18.4535
 X51.3644 Y18.6989
 X51.4526 Y18.8229
 X51.6635 Y19.1195
 X53.2454 Y22.5936
G0 Z25.0000
 X50.3467 Y17.7287
G1 Z-2.8571
 X50.7009 Y18.0099
 X50.8104 Y18.1136
 X49.9273 Y17.4440
 X50.3150 Y17.7036
 X50.4343 Y17.7982
G0 Z25.0000
 X48.4778 Y16.7317
G1 Z-2.8571
 X48.9662 Y16.9335
 X49.1102 Y17.0036
 X49.4478 Y17.1680
 X49.5824 Y17.2447
 X49.8972 Y17.4239
 X50.0242 Y17.5089
G0 Z25.0000
 X47.2446 Y16.3286
G1 Z-2.8571
 X47.6290 Y16.4370
 X47.7505 Y16.4767
 X48.0384 Y16.5706
 X48.1596 Y16.6148
 X48.4583 Y16.7237
 X48.6036 Y16.7837
 X46.8476 Y16.2332
 X47.2247 Y16.3230
 X47.3445 Y16.3568
 X46.0711 Y16.1036
 X46.4315 Y16.1538
 X46.5493 Y16.1760
 X46.8242 Y16.2276
 X46.9453 Y16.2564
 X45.6901 Y16.0696
 X46.0447 Y16.0999
 X46.1633 Y16.1164
G0 Z25.0000
 X41.3447 Y24.5730
G1 Z-2.8571
 X45.1966 Y33.0000
 X40.2690
G0 Z25.0000
 X41.3447 Y24.5730
G1 Z-2.8571
 X42.0187 Y26.0477
G0 Z25.0000
 X38.5270 Y20.9250
G1 Z-2.8571
 X46.9216
 X46.7306 Y20.5025
 X46.5720 Y20.3023
 X46.4001 Y20.1269
 X46.3623 Y20.0883
 X46.1494 Y19.9163
 X45.9288 Y19.7798
 X45.6981 Y19.6748
G0 Z25.0000
 X41.1913 Y33.0000
G1 Z-2.8571
 X39.6264
 X38.3537 Y30.2141
G0 Z25.0000
 X45.7345 Y19.6913
G1 Z-2.8571
 X45.6982 Y19.6748
 X45.4931 Y19.6116
 X45.4536 Y19.5995
 X45.2353 Y19.5617
 X45.1860 Y19.5532
 X44.9485 Y19.5397
 X44.8657 Y19.5350
 X36.3930
G0 Z25.0000
 X34.9500 Y16.0560
G1 Z-2.8571
 X45.3027
 X45.4054 Y16.0592
 X45.6633 Y16.0673
 X45.7798 Y16.0773
G0 Z25.0000
 X38.3538 Y30.2141
G1 Z-2.8571
 X38.3459 Y30.3256
 X38.3359 Y30.4689
 X38.2802 Y30.7047
 X38.2483 Y30.8400
 X38.1583 Y31.0599
 X38.1050 Y31.1904
 X37.9457 Y31.4504
 X37.9778 Y31.3981
 X37.9070 Y31.5135
 X37.7505 Y31.7003
 X37.6647 Y31.8028
 X37.4289 Y32.0155
 X37.4792 Y31.9701
 X37.3854 Y32.0547
 X37.1208 Y32.2425
 X37.1801 Y32.2004
 X37.0797 Y32.2717
 X36.8543 Y32.3997
 X36.7359 Y32.4669
 X36.2379 Y32.6784
 X36.3597 Y32.6267
 X36.1801 Y32.7030
 X35.6466 Y32.8541
 X35.7760 Y32.8175
 X35.5910 Y32.8699
 X35.1707 Y32.9380
 X34.9798 Y32.9689
 X34.3960 Y32.9987
G0 Z25.0000
 X32.7183 Y29.5269
G1 Z-2.8571
 X32.6851 Y29.4301
 X32.6958 Y29.4614
 X32.6851 Y29.4302
 X31.1549 Y26.0889
 X30.6099 Y24.8988
 X30.5764 Y24.8515
 X30.5251 Y24.7992
 X30.5252 Y24.7993
 X30.4606 Y24.7508
 X30.4607 Y24.7509
 X30.3761 Y24.7054
 X30.3763
 X30.2690 Y24.6651
 X30.2626 Y24.6627
 X30.1328 Y24.6313
 X30.1121 Y24.6263
 X29.9237 Y24.6012
G0 Z25.0000
 X34.5407 Y32.9913
G1 Z-2.8571
 X34.3705 Y33.0000
 X21.8170
G0 Z25.0000
 X14.0598 Y43.9452
G1 Z-2.8571
 X14.5520
G0 Z25.0000
 X24.6260 Y29.5390
G1 Z-2.8571
 X25.0495
 X25.2692
 X32.5045
 X32.5579 Y29.5364
 X32.7053 Y29.5291
 X32.7139 Y29.5276
 X32.7183 Y29.5269
G0 Z25.0000
 X29.9568 Y24.6056
G1 Z-2.8571
 X29.9238 Y24.6012
 X29.6798 Y24.5910
 X29.7439 Y24.5937
 X29.6800 Y24.5910
 X23.0146
 X23.7148
 X23.0146
 X23.2362 Y25.0774
 X25.2693 Y29.5390
 X26.7883
G0 Z25.0000
 X10.5027 Y42.7894
G1 Z-2.8571
 X11.4981 Y43.2326
G0 Z25.0000
 X8.9815 Y41.6842
G1 Z-2.8571
 X9.8629 Y42.3246
G0 Z25.0000
 X7.7233 Y40.2868
G1 Z-2.8571
 X8.4523 Y41.0965
G0 Z25.0000
 X6.7831 Y38.6583
G1 Z-2.8571
 X7.3279 Y39.6019
G0 Z25.0000
 X35.6695 Y21.9692
G1 Z-2.8571
 X35.7171 Y21.9120
G0 Z25.0000
 X6.0000 Y15.0523
G1 Z-2.8571
 Y26.4286
G0 Z25.0000
 X37.4272 Y21.0088
G1 Z-2.8571
 X37.9242 Y20.9463
 X38.1114 Y20.9395
 X38.5088 Y20.9250
 X41.2478
G0 Z25.0000
 X36.9283 Y21.1254
G1 Z-2.8571
 X37.3686 Y21.0162
 X37.5511 Y20.9932
G0 Z25.0000
 X35.3247 Y22.8716
G1 Z-2.8571
 X35.3583 Y22.5978
 X35.4403 Y22.4024
 X35.5737 Y22.0842
 X35.9288 Y21.6576
 X36.1048 Y21.5343
 X36.3682 Y21.3497
 X36.5506 Y21.2722
 X36.8511 Y21.1445
 X37.0330 Y21.0994
G0 Z25.0000
 X38.7189 Y19.5350
G1 Z-2.8571
 X35.9715
 X34.6290 Y18.1590
 X32.5772 Y16.0560
 X37.7783
G0 Z25.0000
 X31.9634 Y21.0359
G1 Z-2.8571
 X32.5556 Y21.1589
 X32.7408 Y21.2168
 X33.1574 Y21.3472
 X33.3333 Y21.4231
 X33.7260 Y21.5926
 X33.8937 Y21.6891
 X34.2582 Y21.8988
 X34.4132 Y22.0144
 X34.7470 Y22.2633
 X34.8877 Y22.3972
 X35.1456 Y22.6428
G0 Z25.0000
 X31.2948 Y20.9546
G1 Z-2.8571
 X31.9194 Y21.0268
 X32.1122 Y21.0668
 X30.5992 Y20.9257
 X31.2561 Y20.9501
 X31.4534 Y20.9729
G0 Z25.0000
 X20.5990 Y20.9250
G1 Z-2.8571
 X21.0212
 X21.2411
 X30.5806
 X30.7683 Y20.9320
G0 Z25.0000
 X19.2803 Y16.6399
G1 Z-2.8571
 X21.2411 Y20.9250
 X23.3250
G0 Z25.0000
 X15.0000 Y16.0560
G1 Z-2.8571
 X19.0131
 X19.8899 Y17.9721
G0 Z25.0000
 X25.2448 Y33.0000
G1 Z-2.8571
 X21.1740
 X15.9554 Y21.5598
 X13.4447 Y16.0560
 X15.9223
G0 Z25.0000
 X14.5520 Y6.0548
G1 Z-2.8571
 X14.0598
G0 Z25.0000
 X8.4523 Y8.9035
G1 Z-2.8571
 X7.7233 Y9.7132
G0 Z25.0000
 X9.8629 Y7.6754
G1 Z-2.8571
 X8.9815 Y8.3158
G0 Z25.0000
 X15.0000 Y6.0548
G1 Z-2.8571
 X14.0598
 X13.2862 Y6.2192
 X12.2206 Y6.4457
 X11.4981 Y6.7674
 X10.5028 Y7.2106
 X8.9815 Y8.3158
 X7.7233 Y9.7132
 X7.3279 Y10.3981
 X6.7831 Y11.3416
 X6.5387 Y12.0938
 X6.2021 Y13.1299
 X6.1194 Y13.9165
 X6.0000 Y15.0524
 Y34.9476
 X6.1194 Y36.0835
 X6.2021 Y36.8701
 X6.5387 Y37.9062
 X6.7831 Y38.6584
 X7.7233 Y40.2868
 X8.9815 Y41.6842
 X10.5028 Y42.7895
 X12.2206 Y43.5543
 X13.2862 Y43.7808
 X14.0598 Y43.9452
 X15.0000
G0 Z25.0000
 X8.9547 Y-0.9452
G1 Z-2.8571
 X9.6736
G0 Z25.0000
 X6.7019 Y-0.4887
G1 Z-2.8571
 X8.8496 Y-0.9452
G0 Z25.0000
 X4.5933 Y0.4262
G1 Z-2.8571
 X6.5991 Y-0.4669
G0 Z25.0000
 X1.1667 Y3.4530
G1 Z-2.8571
 X2.6359 Y1.8213
G0 Z25.0000
 X-0.7650 Y7.7118
G1 Z-2.8571
 X-0.0540 Y5.5237
 X1.0963 Y3.5311
G0 Z25.0000
 X129.2549 Y45.8606
G1 Z-2.8571
 X128.9562 Y46.3779
G0 Z25.0000
 X121.8375 Y50.7992
G1 Z-2.8571
 X121.2532 Y50.9234
G0 Z25.0000
 X131.0000 Y40.0524
G1 Z-2.8571
 X130.8384 Y41.5896
 X130.7650 Y42.2882
 X130.2711 Y43.8083
 X130.0540 Y44.4763
 X128.9037 Y46.4689
 X127.8341 Y47.6567
 X127.3641 Y48.1787
 X126.0710 Y49.1182
 X125.5028 Y49.5311
 X124.0426 Y50.1812
 X123.4009 Y50.4669
 X121.1504 Y50.9452
 X120.3264
G0 Z25.0000
 X130.0540 Y5.5237
G1 Z-2.8571
 X130.2711 Y6.1917
 X130.7650 Y7.7118
 X130.8384 Y8.4104
 X131.0000 Y9.9476
 Y18.5714
G0 Z25.0000
 X128.9037 Y3.5311
G1 Z-2.8571
 X129.2549 Y4.1394
G0 Z25.0000
 X127.3641 Y1.8213
G1 Z-2.8571
 X127.8341 Y2.3433
G0 Z25.0000
 X121.1504 Y-0.9452
G1 Z-2.8571
 X121.8375 Y-0.7992
 X123.4009 Y-0.4669
 X124.0426 Y-0.1812
 X125.5028 Y0.4689
 X126.0710 Y0.8818
G0 Z25.0000
 X120.0000 Y51.0000
G1 Z-2.8571
 X10.0000
G0 Z25.0000
 Y-1.0000
G1 Z-2.8571
 X41.4286
G0 Z25.0000
 X9.6736 Y50.9452
G1 Z-2.8571
 X8.9547
 X9.2534
 X8.8496
 X7.2862 Y50.6129
 X6.5991 Y50.4669
 X4.5933 Y49.5738
 X5.1389 Y49.8168
 X4.4972 Y49.5311
 X2.7209 Y48.2405
 X3.2041 Y48.5916
 X2.6359 Y48.1787
 X1.1667 Y46.5470
 X1.5664 Y46.9909
 X1.0963 Y46.4689
 X0.2972 Y45.0847
 X-0.0540 Y44.4763
 X-0.7325 Y42.3881
 X-0.5480 Y42.9562
 X-0.7650 Y42.2882
 X-0.9321 Y40.6986
 X-1.0000 Y40.0524
 Y10.0000
G0 Z25.0000
 X8.8496 Y-0.9452
G1 Z-2.8571
 X9.2534
G0 Z25.0000
 X6.5991 Y-0.4669
G1 Z-2.8571
 X7.2862 Y-0.6129
G0 Z25.0000
 X2.6359 Y1.8213
G1 Z-2.8571
 X3.2041 Y1.4084
 X4.4972 Y0.4689
 X5.1389 Y0.1832
G0 Z25.0000
 X-0.7325 Y7.6119
G1 Z-2.8571
 X-0.5480 Y7.0438
 X-0.0015 Y5.4326
 X0.2972 Y4.9153
G0 Z25.0000
 X-1.0000 Y18.5714
G1 Z-2.8571
 Y9.9476
 X-0.9321 Y9.3014
 X-0.7650 Y7.7118
G0 Z25.0000
 X1.0963 Y3.5311
G1 Z-2.8571
 X1.5664 Y3.0091
G0 Z25.0000
 X32.5772 Y16.0560
G1 Z-4.2857
 X42.7841
G0 Z25.0000
 X130.3634 Y43.5243
G1 Z-4.2857
 X130.0865 Y44.3764
G0 Z25.0000
 X130.8697 Y41.2926
G1 Z-4.2857
 X130.7760 Y42.1836
G0 Z25.0000
 X122.1296 Y50.7371
G1 Z-4.2857
 X121.2532 Y50.9234
 X120.4480 Y50.9452
 X120.3264
G0 Z25.0000
 X115.0000 Y43.9452
G1 Z-4.2857
 X115.8960
G0 Z25.0000
 X123.2169 Y38.6584
G1 Z-4.2857
 X123.7381 Y37.0541
G0 Z25.0000
 X119.4972 Y42.7895
G1 Z-4.2857
 X120.8619 Y41.7980
G0 Z25.0000
 X117.7794 Y43.5543
G1 Z-4.2857
 X119.3204 Y42.8682
G0 Z25.0000
 X115.9401 Y43.9452
G1 Z-4.2857
 X117.5901 Y43.5945
G0 Z25.0000
 X116.5679 Y30.6001
G1 Z-4.2857
 X116.5292 Y30.7638
 X116.4578 Y30.9694
 X116.3934 Y31.1232
 X115.8186 Y31.8951
 X115.6769 Y32.0209
 X115.2178 Y32.3351
 X115.0245 Y32.4427
 X114.8222 Y32.5349
 X114.4857 Y32.6781
 X113.6666 Y32.8985
 X113.2915 Y32.9599
G0 Z25.0000
 X116.5918 Y29.6936
G1 Z-4.2857
 X116.6274 Y30.0814
 X116.6171 Y30.2196
 X116.5984 Y30.4710
 X116.5103 Y30.8441
 X116.3631 Y31.1957
 X116.2932 Y31.3088
 X116.1632 Y31.5192
 X116.0761 Y31.6211
 X115.9154 Y31.8091
 X115.6337 Y32.0592
 X115.5332 Y32.1295
 X115.3244 Y32.2757
 X114.9783 Y32.4684
 X114.4285 Y32.7025
 X114.2552 Y32.7520
 X113.8438 Y32.8695
 X113.2369 Y32.9688
 X112.6608 Y32.9987
G0 Z25.0000
 X124.0000 Y32.1429
G1 Z-4.2857
 Y15.0523
G0 Z25.0000
 X131.0000 Y10.0000
G1 Z-4.2857
 Y40.0524
 X130.7650 Y42.2882
 X130.0540 Y44.4763
 X129.4042 Y45.6019
 X128.9037 Y46.4689
 X128.0340 Y47.4348
 X127.3641 Y48.1787
 X126.3126 Y48.9426
 X125.5028 Y49.5311
 X124.3154 Y50.0597
 X123.4009 Y50.4669
 X121.1504 Y50.9452
 X120.3264
G0 Z25.0000
 X116.4763 Y29.2097
G1 Z-4.2857
 X116.5839 Y29.6073
 X116.6130 Y29.9247
G0 Z25.0000
 X111.0185 Y29.5224
G1 Z-4.2857
 X110.9870 Y29.4321
G0 Z25.0000
 X112.9757 Y21.5097
G1 Z-4.2857
 X116.4548 Y29.1304
 X116.5407 Y29.4477
G0 Z25.0000
 X115.0000 Y43.9452
G1 Z-4.2857
 X115.9402
 X117.7794 Y43.5543
 X119.4972 Y42.7894
 X121.0185 Y41.6842
 X122.1472 Y40.4307
 X122.2767 Y40.2868
 X123.1201 Y38.8260
 X123.2169 Y38.6584
 X123.7979 Y36.8701
 X123.9743 Y35.1925
 X124.0000 Y34.9476
 Y15.0524
 X123.9743 Y14.8075
 X123.7979 Y13.1299
 X123.7381 Y12.9459
 X123.2169 Y11.3416
 X122.2767 Y9.7131
G0 Z25.0000
 X130.7760 Y7.8164
G1 Z-4.2857
 X131.0000 Y9.9476
 Y22.8571
G0 Z25.0000
 X130.0865 Y5.6236
G1 Z-4.2857
 X130.7650 Y7.7118
 X130.8697 Y8.7074
G0 Z25.0000
 X125.5878 Y0.5307
G1 Z-4.2857
 X127.3641 Y1.8213
 X128.0340 Y2.5652
 X128.9037 Y3.5311
 X129.4042 Y4.3981
 X130.0540 Y5.5237
 X130.3634 Y6.4757
G0 Z25.0000
 X120.8619 Y8.2020
G1 Z-4.2857
 X119.4972 Y7.2105
G0 Z25.0000
 X121.2532 Y-0.9234
G1 Z-4.2857
 X123.4009 Y-0.4669
 X124.3154 Y-0.0597
 X125.5028 Y0.4689
 X126.3126 Y1.0574
G0 Z25.0000
 X120.3264 Y-0.9452
G1 Z-4.2857
 X121.1504
 X122.1296 Y-0.7371
 X120.3264 Y-0.9452
 X120.4480
G0 Z25.0000
 X123.1201 Y11.1740
G1 Z-4.2857
 X122.2767 Y9.7132
 X122.1472 Y9.5693
 X121.0185 Y8.3158
 X119.4972 Y7.2106
 X119.3204 Y7.1318
 X117.7794 Y6.4457
 X115.9401 Y6.0548
 X115.8960
 X115.0000
G0 Z25.0000
 X117.5901 Y6.4055
G1 Z-4.2857
 X115.9402 Y6.0548
 X115.0000
G0 Z25.0000
 X111.0185 Y29.5224
G1 Z-4.2857
 X110.9871 Y29.4322
 X107.1020 Y20.9250
 X112.7088
 X115.5866 Y27.2286
G0 Z25.0000
 X110.2175 Y27.7471
G1 Z-4.2857
 X107.1020 Y20.9250
 X111.2408
G0 Z25.0000
 X113.0556 Y32.9782
G1 Z-4.2857
 X112.6349 Y33.0000
 X94.9120
G0 Z25.0000
 X106.8970 Y29.5390
G1 Z-4.2857
 X107.3214
 X107.5411
 X110.7692
 X110.9682 Y29.5295
 X110.9797 Y29.5290
 X111.0185 Y29.5224
G0 Z25.0000
 X103.8945 Y21.5114
G1 Z-4.2857
 X107.5411 Y29.5390
 X109.8497
G0 Z25.0000
 X97.7210
G1 Z-4.2857
 X98.1453
 X98.3650
 X101.8583
 X97.9263 Y20.9250
 X103.6281
 X106.8600 Y28.0397
G0 Z25.0000
 X101.5522 Y28.8685
G1 Z-4.2857
 X97.9263 Y20.9250
 X102.1361
G0 Z25.0000
 X90.3250
G1 Z-4.2857
 X94.4510
 X97.6837 Y28.0396
 X98.3650 Y29.5390
 X101.8583
G0 Z25.0000
 X108.3240 Y33.0000
G1 Z-4.2857
 X94.2685
 X92.9751 Y30.1590
G0 Z25.0000
 X88.7977 Y20.9837
G1 Z-4.2857
 X88.7709 Y20.9250
 X92.9639
G0 Z25.0000
 X92.9751 Y30.1590
G1 Z-4.2857
 X92.9738 Y30.1780
 X92.9565 Y30.4289
 X92.8911 Y30.7224
 X92.9282 Y30.5557
 X92.8737 Y30.8005
 X92.8243 Y30.9247
 X92.7332 Y31.1536
 X92.6654 Y31.2679
 X92.5400 Y31.4794
 X92.4569 Y31.5811
 X92.3019 Y31.7710
 X92.2075 Y31.8586
 X92.0277 Y32.0255
 X91.9293 Y32.0975
 X91.7240 Y32.2479
 X91.4309 Y32.4171
 X91.6174 Y32.3095
 X91.3849 Y32.4436
 X90.8944 Y32.6612
 X91.2294 Y32.5126
 X90.8381 Y32.6861
 X90.3142 Y32.8450
G0 Z25.0000
 X89.3702 Y21.5108
G1 Z-4.2857
 X89.3933 Y21.5617
G0 Z25.0000
 X87.3383 Y29.5115
G1 Z-4.2857
 X87.4400 Y29.4942
 X87.4572 Y29.4889
G0 Z25.0000
 X79.4588 Y26.0190
G1 Z-4.2857
 X85.8747
 X85.2320 Y24.6100
G0 Z25.0000
 X79.0823 Y26.0134
G1 Z-4.2857
 X79.4594 Y26.0190
 X85.4983
G0 Z25.0000
 X78.7999 Y25.9980
G1 Z-4.2857
 X79.0826 Y26.0134
 X79.3690 Y26.0176
 X78.6228 Y25.9781
 X78.8001 Y25.9980
 X79.0222 Y26.0101
G0 Z25.0000
 X90.6666 Y32.7381
G1 Z-4.2857
 X90.2545 Y32.8631
 X90.0743 Y32.8940
 X89.6461 Y32.9674
 X89.4643 Y32.9773
 X89.0483 Y33.0000
 X76.6440
G0 Z25.0000
 X87.4538 Y29.4790
G1 Z-4.2857
 X77.6170
G0 Z25.0000
 X75.2380 Y20.9250
G1 Z-4.2857
 X89.1036
 X89.3933 Y21.5617
G0 Z25.0000
 X85.8747 Y26.0190
G1 Z-4.2857
 X85.2320 Y24.6100
 X77.8313
G0 Z25.0000
 X83.8801
G1 Z-4.2857
 X77.8313
 X78.6228 Y25.9781
 X78.7662 Y25.9942
 X78.5825 Y25.9692
 X78.6230 Y25.9781
 X78.4688 Y25.9050
 X78.5152 Y25.9400
 X78.5826 Y25.9692
 X78.4688 Y25.9050
 X78.5153 Y25.9400
 X78.4037 Y25.8274
 X78.4689 Y25.9050
 X77.8313 Y24.6100
 X78.1355 Y25.2787
 X78.3041 Y25.6492
 X78.4037 Y25.8275
G0 Z25.0000
 X86.0241 Y33.0000
G1 Z-4.2857
 X76.0010
 X74.6937 Y30.1336
 X74.6266 Y29.5200
 X87.1784
 X87.3367 Y29.5116
 X87.3384 Y29.5115
 X87.4401 Y29.4942
G0 Z25.0000
 X75.5707 Y32.0566
G1 Z-4.2857
 X74.6937 Y30.1336
 X74.6266 Y29.5200
 X84.4844
 X85.5648 Y29.4790
 X77.5952
 X77.4237 Y29.4715
 X76.9056 Y29.4489
 X76.7203 Y29.4222
 X76.2368 Y29.3525
 X75.6755 Y29.2036
 X76.0583 Y29.3051
 X75.6086 Y29.1858
 X75.0948 Y28.9700
 X75.4358 Y29.1132
 X75.0235 Y28.9401
 X74.8625 Y28.8409
 X74.4926 Y28.6132
 X74.3475 Y28.4857
 X74.1554 Y28.3169
G0 Z25.0000
 X74.6144 Y20.9500
G1 Z-4.2857
 X74.9063 Y20.9316
 X75.1471 Y20.9267
 X75.2277 Y20.9250
 X85.2585
G0 Z25.0000
 X74.3140 Y20.9821
G1 Z-4.2857
 X74.5906 Y20.9514
 X74.8198 Y20.9371
G0 Z25.0000
 X73.3064 Y27.1052
G1 Z-4.2857
 X72.0049 Y24.2282
G0 Z25.0000
 X74.1727 Y31.6205
G1 Z-4.2857
 X74.0628 Y31.7539
 X74.3799 Y31.3119
 X74.2943 Y31.4552
 X74.6414 Y30.6060
 X74.6050 Y30.7689
 X74.5509 Y29.2236
 X74.6547 Y29.6300
 X74.6831 Y29.9429
 X74.6974 Y30.0999
 X74.6871 Y30.2376
 X74.6688 Y30.4829
 X74.5878 Y30.8459
 X74.5394 Y30.9681
 X74.4489 Y31.1966
 X74.2557 Y31.5198
 X74.0190 Y31.8070
 X73.7914 Y32.0166
G0 Z25.0000
 X74.1554 Y28.3169
G1 Z-4.2857
 X74.5289 Y29.1375
 X74.6146 Y29.4730
G0 Z25.0000
 X72.3199 Y21.9525
G1 Z-4.2857
 X72.4679 Y21.7815
 X72.6121 Y21.6551
 X72.6882 Y21.5883
 X72.8456 Y21.4815
 X72.9231 Y21.4289
 X73.0900 Y21.3397
 X73.1734 Y21.2951
 X73.3555 Y21.2205
 X73.4376 Y21.1868
 X73.6271 Y21.1271
 X73.7091 Y21.1013
 X73.9071 Y21.0543
 X73.9922 Y21.0342
 X74.2029 Y20.9990
 X74.2867 Y20.9851
 X74.5057 Y20.9608
G0 Z25.0000
 X73.9256 Y31.8931
G1 Z-4.2857
 X73.7478 Y32.0568
 X73.6490 Y32.1281
 X73.4465 Y32.2745
 X73.3408 Y32.3345
 X73.1116 Y32.4648
 X72.6275 Y32.6752
 X72.9572 Y32.5319
 X72.5694 Y32.7004
 X72.3973 Y32.7505
 X71.9918 Y32.8687
 X71.4474 Y32.9594
 X71.8157 Y32.8980
 X71.3919 Y32.9686
 X70.8248 Y32.9986
G0 Z25.0000
 X69.1336 Y29.5266
G1 Z-4.2857
 X69.1036 Y29.4508
 X68.0002 Y27.0300
 X73.2724
 X74.1554 Y28.3169
 X74.3333 Y28.7078
G0 Z25.0000
 X69.0005 Y29.2246
G1 Z-4.2857
 X68.0002 Y27.0300
 X72.1098
G0 Z25.0000
 X71.8654 Y23.0227
G1 Z-4.2857
 X71.9044 Y22.7957
 X71.9592 Y22.6184
 X71.9910 Y22.5156
 X72.0703 Y22.3462
 X72.1159 Y22.2488
 X72.2177 Y22.0926
 X72.2752 Y22.0041
 X72.3979 Y21.8624
G0 Z25.0000
 X73.0128 Y26.4563
G1 Z-4.2857
 X71.9746 Y24.1613
 X71.9409 Y24.0433
 X71.8699 Y23.7947
 X71.8402 Y23.3768
 X71.8554 Y23.0813
 X71.8866 Y22.8992
 X71.8582 Y23.6297
 X71.8402 Y23.3768
 X71.8501 Y23.1830
G0 Z25.0000
 X68.0703 Y24.3860
G1 Z-4.2857
 X59.5233
G0 Z25.0000
 X61.6035 Y29.5390
G1 Z-4.2857
 X68.9128
 X69.1076 Y29.5296
 X69.1189 Y29.5290
 X69.1336 Y29.5265
G0 Z25.0000
 X59.3085 Y24.3975
G1 Z-4.2857
 X59.2783 Y24.4026
 X59.3138 Y24.4911
 X61.2486 Y28.7567
 X61.6035 Y29.5390
 X67.0053
G0 Z25.0000
 X59.2783 Y24.4026
G1 Z-4.2857
 X59.3064 Y24.4724
G0 Z25.0000
 X15.3264 Y44.0000
G1 Z-4.2857
 X100.7143
G0 Z25.0000
 X15.3264
G1 Z-4.2857
 X114.6736
G0 Z25.0000
 X120.0000 Y51.0000
G1 Z-4.2857
 X10.0000
G0 Z25.0000
 X57.1429
G1 Z-4.2857
 X10.0000
G0 Z25.0000
 X100.7143 Y6.0000
G1 Z-4.2857
 X15.3264
G0 Z25.0000
 X114.6736
G1 Z-4.2857
 X15.3264
G0 Z25.0000
 X10.0000 Y-1.0000
G1 Z-4.2857
 X120.0000
G0 Z25.0000
 X10.0000
G1 Z-4.2857
 X57.1429
G0 Z25.0000
 X71.2120 Y32.9782
G1 Z-4.2857
 X70.7984 Y33.0000
 X58.2620
G0 Z25.0000
 X57.6820 Y20.9250
G1 Z-4.2857
 X70.7750
 X71.5538 Y22.6133
 X71.8468 Y23.2483
 X72.0763 Y24.3860
 X59.5235
 X59.4778 Y24.3883
 X59.3130 Y24.3968
 X59.2783 Y24.4026
G0 Z25.0000
 X57.1163 Y20.9545
G1 Z-4.2857
 X57.6546 Y20.9250
 X67.1197
G0 Z25.0000
 X55.9338 Y21.2213
G1 Z-4.2857
 X56.4524 Y21.0635
 X56.8810 Y20.9885
 X57.0571 Y20.9577
 X57.5036 Y20.9333
G0 Z25.0000
 X67.7429 Y33.0000
G1 Z-4.2857
 X57.6183
 X57.3459 Y32.4013
G0 Z25.0000
 X53.8777 Y23.0722
G1 Z-4.2857
 X53.9398 Y22.9146
 X54.0256 Y22.7282
 X54.1120 Y22.5797
 X54.2248 Y22.4082
 X54.3369 Y22.2688
 X54.4632 Y22.1260
 X54.5997 Y21.9964
G0 Z25.0000
 X51.7031 Y19.2066
G1 Z-4.2857
 X53.7532 Y23.7087
G0 Z25.0000
 X57.9634 Y32.9544
G1 Z-4.2857
 X57.9842 Y33.0000
 X53.0780
G0 Z25.0000
 X55.3777 Y21.4644
G1 Z-4.2857
 X55.8712 Y21.2404
 X56.2825 Y21.1152
G0 Z25.0000
 X53.7829 Y23.4416
G1 Z-4.2857
 X53.8489 Y23.1451
 X53.9875 Y22.7937
 X54.1775 Y22.4670
 X54.4147 Y22.1721
 X54.6863 Y21.9141
 X54.8952 Y21.7581
 X54.9892 Y21.6880
 X55.2211 Y21.5504
 X55.3278 Y21.4871
 X55.7066 Y21.3151
G0 Z25.0000
 X55.6184 Y33.0000
G1 Z-4.2857
 X52.4347
 X48.5957 Y24.5730
G0 Z25.0000
 X53.7532 Y23.7087
G1 Z-4.2857
 X53.7665 Y23.5152
 X53.8200 Y23.2749
 X53.7532 Y23.7087
 X53.7575 Y23.6469
G0 Z25.0000
 X51.3940 Y18.7406
G1 Z-4.2857
 X51.6635 Y19.1195
 X53.7532 Y23.7087
G0 Z25.0000
 X46.7307 Y20.5025
G1 Z-4.2857
 X46.5719 Y20.3023
G0 Z25.0000
 X51.2384 Y30.3741
G1 Z-4.2857
 X48.5957 Y24.5730
 X41.3447
G0 Z25.0000
 X47.2482
G1 Z-4.2857
 X41.3447
G0 Z25.0000
 X50.7327 Y18.0400
G1 Z-4.2857
 X51.0503 Y18.3408
 X51.2702 Y18.5915
 X51.3644 Y18.6989
 X51.5562 Y18.9687
 X50.3467 Y17.7287
 X50.7009 Y18.0099
 X50.9479 Y18.2438
 X49.9273 Y17.4440
 X50.3150 Y17.7036
 X50.5892 Y17.9212
 X49.4757 Y17.1839
 X49.8972 Y17.4239
 X50.1956 Y17.6236
 X48.4778 Y16.7317
 X48.9662 Y16.9335
 X49.3160 Y17.1038
 X49.4478 Y17.1680
 X49.7713 Y17.3522
G0 Z25.0000
 X47.6481 Y16.4433
G1 Z-4.2857
 X48.0384 Y16.5706
 X48.3456 Y16.6826
 X48.4583 Y16.7237
 X48.8264 Y16.8757
 X47.2446 Y16.3286
 X47.6290 Y16.4370
 X47.9316 Y16.5358
 X46.8476 Y16.2332
 X47.2247 Y16.3230
 X47.5212 Y16.4066
G0 Z25.0000
 X45.9026 Y19.7678
G1 Z-4.2857
 X45.6981 Y19.6748
G0 Z25.0000
 X46.0711 Y16.1036
G1 Z-4.2857
 X46.4315 Y16.1538
 X46.7169 Y16.2074
 X46.8242 Y16.2276
 X47.1182 Y16.2976
 X45.6901 Y16.0696
 X46.0447 Y16.0999
 X46.3265 Y16.1392
G0 Z25.0000
 X41.3447 Y24.5730
G1 Z-4.2857
 X45.1966 Y33.0000
 X40.2690
G0 Z25.0000
 X41.3447 Y24.5730
G1 Z-4.2857
 X43.7059 Y29.7387
G0 Z25.0000
 X38.5270 Y20.9250
G1 Z-4.2857
 X46.9216
 X46.7306 Y20.5025
 X46.5720 Y20.3023
 X46.5391 Y20.2688
 X46.3623 Y20.0883
 X46.3333 Y20.0649
 X46.1494 Y19.9163
 X46.1233 Y19.9002
 X45.9288 Y19.7798
 X45.6982 Y19.6748
 X45.6709 Y19.6664
 X45.4536 Y19.5995
 X45.1860 Y19.5531
G0 Z25.0000
 X42.8238 Y33.0000
G1 Z-4.2857
 X39.6264
 X38.4025 Y30.3209
 X38.3537 Y30.2141
G0 Z25.0000
 X45.4227 Y19.5941
G1 Z-4.2857
 X45.1860 Y19.5532
 X45.1451 Y19.5508
 X44.8657 Y19.5350
 X36.3930
G0 Z25.0000
 X38.0344 Y31.3056
G1 Z-4.2857
 X37.9457 Y31.4504
 X38.1985 Y30.9616
 X38.1356 Y31.1155
 X38.3538 Y30.2141
 X38.3537 Y30.2152
 X38.3359 Y30.4689
 X38.3049 Y30.6001
 X38.2483 Y30.8400
 X38.1050 Y31.1904
 X37.9070 Y31.5135
 X37.7095 Y31.7493
 X37.8232 Y31.6136
 X37.6647 Y31.8028
 X37.4289 Y32.0155
 X37.5683 Y31.8897
 X37.3854 Y32.0547
 X37.1208 Y32.2425
 X37.2852 Y32.1258
 X37.0797 Y32.2717
 X36.9754 Y32.3309
 X36.7359 Y32.4669
 X36.2379 Y32.6784
 X36.5752 Y32.5352
 X36.1801 Y32.7030
 X35.6466 Y32.8541
 X36.0050 Y32.7526
 X35.5910 Y32.8699
 X35.4129 Y32.8988
 X34.9798 Y32.9689
 X34.3960 Y32.9987
G0 Z25.0000
 X32.7183 Y29.5269
G1 Z-4.2857
 X32.6851 Y29.4302
 X32.1888 Y28.3466
 X30.6099 Y24.8987
 Y24.8988
 X30.5764 Y24.8515
 X30.5765 Y24.8516
 X30.5251 Y24.7992
 X30.5252 Y24.7993
 X30.4607 Y24.7508
 X30.3761 Y24.7054
 X30.4607 Y24.7509
 X30.3761 Y24.7054
 X30.3763
 X30.2626 Y24.6627
 X30.1120 Y24.6263
 X30.2592 Y24.6618
 X30.1121 Y24.6263
 X29.9237 Y24.6012
G0 Z25.0000
 X34.7969 Y32.9782
G1 Z-4.2857
 X34.3705 Y33.0000
 X21.8170
G0 Z25.0000
 X14.0598 Y43.9452
G1 Z-4.2857
 X14.8507
G0 Z25.0000
 X25.2692 Y29.5390
G1 Z-4.2857
 X32.5045
 X32.6959 Y29.5296
 X32.7053 Y29.5291
 X32.7183 Y29.5269
G0 Z25.0000
 X30.0948 Y24.6240
G1 Z-4.2857
 X29.9238 Y24.6012
 X29.8940 Y24.6000
 X29.6800 Y24.5910
 X23.0146
 X22.7948
 X21.4600
G0 Z25.0000
 X27.7056
G1 Z-4.2857
 X23.0146
 X24.7694 Y28.4420
 X25.2693 Y29.5390
 X30.6154
G0 Z25.0000
 X9.6736 Y50.9452
G1 Z-4.2857
 X8.9547
 X9.4027
 X8.8496
 X7.5783 Y50.6750
 X6.5991 Y50.4669
 X4.5933 Y49.5738
 X5.4118 Y49.9382
 X4.4972 Y49.5311
 X2.7209 Y48.2405
 X3.4457 Y48.7671
 X2.6359 Y48.1787
 X1.1667 Y46.5470
 X1.7662 Y47.2128
 X1.0963 Y46.4689
 X-0.0015 Y44.5674
G0 Z25.0000
 X6.7831 Y38.6583
G1 Z-4.2857
 X7.6265 Y40.1192
G0 Z25.0000
 X0.4465 Y45.3433
G1 Z-4.2857
 X-0.0540 Y44.4763
 X-0.4557 Y43.2402
 X-0.7650 Y42.2882
 X-0.9945 Y40.1045
G0 Z25.0000
 X36.0381 Y21.5811
G1 Z-4.2857
 X36.2230 Y21.4515
 X35.6695 Y21.9692
 X35.8013 Y21.8108
 X34.3057 Y21.9343
 X34.7470 Y22.2633
 X35.0596 Y22.5609
 X35.2852 Y22.7758
 X35.3256 Y22.8641
 X33.7757 Y21.6212
 X34.2582 Y21.8988
 X34.6036 Y22.1563
G0 Z25.0000
 X-0.9009 Y40.9956
G1 Z-4.2857
 X-1.0000 Y40.0524
 Y10.0000
G0 Z25.0000
 X6.0000 Y15.0523
G1 Z-4.2857
 Y32.1429
G0 Z25.0000
 X37.9686 Y20.9447
G1 Z-4.2857
 X38.5088 Y20.9250
 X46.0633
G0 Z25.0000
 X37.4272 Y21.0088
G1 Z-4.2857
 X37.9242 Y20.9463
 X38.3642 Y20.9303
 X36.9283 Y21.1254
 X37.3686 Y21.0162
 X37.7705 Y20.9656
G0 Z25.0000
 X35.3247 Y22.8716
G1 Z-4.2857
 X35.3330 Y22.8041
 X35.3583 Y22.5978
 X35.4906 Y22.2823
 X35.5737 Y22.0842
 X35.9288 Y21.6576
 X36.3682 Y21.3497
 X36.7021 Y21.2078
 X36.8511 Y21.1445
 X37.2185 Y21.0534
G0 Z25.0000
 X42.8356 Y19.5350
G1 Z-4.2857
 X35.9715
 X32.5772 Y16.0560
 X45.3027
 X45.5594 Y16.0641
 X45.6633 Y16.0673
 X45.9386 Y16.0908
G0 Z25.0000
 X35.3278 Y18.8752
G1 Z-4.2857
 X32.5772 Y16.0560
G0 Z25.0000
 X31.9634 Y21.0359
G1 Z-4.2857
 X32.5556 Y21.1589
 X32.9853 Y21.2934
 X33.1574 Y21.3472
 X33.5600 Y21.5210
 X33.7260 Y21.5926
 X34.1024 Y21.8092
G0 Z25.0000
 X31.2948 Y20.9546
G1 Z-4.2857
 X31.9194 Y21.0268
 X32.3757 Y21.1215
 X30.5992 Y20.9257
 X31.2561 Y20.9501
 X31.7343 Y21.0054
G0 Z25.0000
 X21.2411 Y20.9250
G1 Z-4.2857
 X30.5806
 X31.0676 Y20.9431
G0 Z25.0000
 X19.2803 Y16.6399
G1 Z-4.2857
 X21.2411 Y20.9250
 X28.1497
G0 Z25.0000
 X15.0000 Y16.0560
G1 Z-4.2857
 X19.0131
 X20.9689 Y20.3300
G0 Z25.0000
 X31.3116 Y33.0000
G1 Z-4.2857
 X21.1740
 X19.2566 Y28.7966
 X13.4447 Y16.0560
 X17.5548
G0 Z25.0000
 X14.8507 Y6.0548
G1 Z-4.2857
 X14.0598
 X15.0000
 X14.0598
 X12.2205 Y6.4458
 X13.8705 Y6.0950
 X12.2206 Y6.4457
 X10.5027 Y7.2106
 X12.0437 Y6.5245
 X10.5028 Y7.2105
 X10.3462 Y7.3243
 X8.9815 Y8.3158
 X8.8520 Y8.4596
 X7.7233 Y9.7132
 X7.6265 Y9.8808
 X6.7831 Y11.3416
 X6.7233 Y11.5257
 X6.2021 Y13.1299
 X6.1818 Y13.3224
 X6.0000 Y15.0524
 Y34.9476
 X6.1818 Y36.6776
 X6.2021 Y36.8701
 X6.7233 Y38.4743
 X6.7831 Y38.6584
 X7.7233 Y40.2868
 X8.8520 Y41.5404
 X8.9815 Y41.6842
 X10.3462 Y42.6757
 X10.5028 Y42.7895
 X12.0437 Y43.4755
 X12.2206 Y43.5543
 X13.8705 Y43.9050
 X14.0598 Y43.9452
 X15.0000
G0 Z25.0000
 X8.9547 Y-0.9452
G1 Z-4.2857
 X9.6736
G0 Z25.0000
 X4.5933 Y0.4262
G1 Z-4.2857
 X6.5991 Y-0.4669
 X7.5783 Y-0.6750
 X8.8496 Y-0.9452
 X9.4027
G0 Z25.0000
 X2.7209 Y1.7595
G1 Z-4.2857
 X4.4972 Y0.4689
 X5.4118 Y0.0618
G0 Z25.0000
 X1.1667 Y3.4530
G1 Z-4.2857
 X2.6359 Y1.8213
 X3.4457 Y1.2329
G0 Z25.0000
 X-0.7325 Y7.6119
G1 Z-4.2857
 X-0.4557 Y6.7598
G0 Z25.0000
 X-1.0000 Y22.8571
G1 Z-4.2857
 Y9.9476
 X-0.9009 Y9.0044
 X-0.7650 Y7.7118
 X-0.0540 Y5.5237
 X0.4465 Y4.6567
 X1.0963 Y3.5311
 X1.7662 Y2.7872
G0 Z25.0000
 X1.0963 Y3.5311
G1 Z-5.7143
 X1.9660 Y2.5652
G0 Z25.0000
M5 (stop spindle)
G04 P3 (wait for 3 seconds)
G0 Z25.0000
M2 (end program)
